; generated by Slic3r 1.0.0RC3 on 2014-11-13 at 00:00:04

; layer_height = 0.3
; perimeters = 3
; top_solid_layers = 3
; bottom_solid_layers = 3
; fill_density = 0.2
; perimeter_speed = 30
; infill_speed = 40
; travel_speed = 130
; nozzle_diameter = 0.4
; filament_diameter = 1.75
; extrusion_multiplier = 0.055
; perimeters extrusion width = 0.40mm
; infill extrusion width = 0.42mm
; solid infill extrusion width = 0.42mm
; top infill extrusion width = 0.42mm
; first layer extrusion width = 0.80mm

G21 ; set units to millimeters
M107
M104 S200 ; set temperature

M109 S200 ; wait for temperature to be reached
G90 ; use absolute coordinates
G92 E0
M82 ; use absolute distances for extrusion
G1 F300.000 E-0.10000
G92 E0
G1 Z0.400 F7800.000
G1 X73.648 Y86.478 F7800.000
G1 E0.10000 F300.000
G1 X74.189 Y86.020 E0.10463 F540.000
G1 X74.801 Y85.571 E0.10958
G1 X75.479 Y85.133 E0.11486
G1 X76.224 Y84.711 E0.12045
G1 X77.029 Y84.308 E0.12633
G1 X77.894 Y83.927 E0.13251
G1 X78.812 Y83.571 E0.13894
G1 X79.779 Y83.242 E0.14561
G1 X80.792 Y82.943 E0.15251
G1 X81.846 Y82.674 E0.15961
G1 X82.936 Y82.438 E0.16690
G1 X84.206 Y82.215 E0.17532
G1 X85.202 Y82.070 E0.18189
G1 X86.368 Y81.940 E0.18956
G1 X87.551 Y81.846 E0.19731
G1 X88.744 Y81.790 E0.20511
G1 X89.943 Y81.771 E0.21294
G1 X91.141 Y81.790 E0.22077
G1 X92.334 Y81.846 E0.22857
G1 X93.517 Y81.940 E0.23632
G1 X94.683 Y82.070 E0.24399
G1 X95.829 Y82.237 E0.25155
G1 X96.949 Y82.438 E0.25899
G1 X98.039 Y82.674 E0.26627
G1 X99.092 Y82.943 E0.27337
G1 X100.106 Y83.242 E0.28028
G1 X101.073 Y83.571 E0.28695
G1 X101.991 Y83.927 E0.29338
G1 X102.856 Y84.308 E0.29955
G1 X103.661 Y84.711 E0.30543
G1 X104.406 Y85.133 E0.31103
G1 X105.084 Y85.571 E0.31630
G1 X105.696 Y86.020 E0.32126
G1 X106.237 Y86.478 E0.32588
G1 X106.707 Y86.939 E0.33019
G1 X107.102 Y87.396 E0.33413
G1 X107.430 Y87.852 E0.33780
G1 X107.684 Y88.289 E0.34111
G1 X107.878 Y88.723 E0.34421
G1 X108.012 Y89.146 E0.34711
G1 X107.976 Y90.852 E0.35826
G1 X107.878 Y91.162 E0.36038
G1 X107.684 Y91.596 E0.36348
G1 X107.430 Y92.033 E0.36678
G1 X107.102 Y92.489 E0.37045
G1 X106.707 Y92.946 E0.37440
G1 X106.237 Y93.407 E0.37870
G1 X105.696 Y93.865 E0.38333
G1 X105.084 Y94.314 E0.38829
G1 X104.406 Y94.752 E0.39356
G1 X103.661 Y95.174 E0.39915
G1 X102.856 Y95.577 E0.40504
G1 X101.991 Y95.958 E0.41121
G1 X101.073 Y96.314 E0.41764
G1 X100.106 Y96.643 E0.42431
G1 X99.093 Y96.942 E0.43121
G1 X98.039 Y97.211 E0.43832
G1 X96.949 Y97.447 E0.44560
G1 X95.829 Y97.648 E0.45304
G1 X94.683 Y97.815 E0.46060
G1 X93.517 Y97.945 E0.46826
G1 X92.334 Y98.039 E0.47601
G1 X91.141 Y98.095 E0.48382
G1 X89.943 Y98.114 E0.49165
G1 X88.744 Y98.095 E0.49947
G1 X87.551 Y98.039 E0.50728
G1 X86.368 Y97.945 E0.51503
G1 X85.202 Y97.815 E0.52269
G1 X84.056 Y97.648 E0.53025
G1 X82.936 Y97.447 E0.53769
G1 X81.846 Y97.211 E0.54497
G1 X80.792 Y96.942 E0.55208
G1 X79.779 Y96.643 E0.55898
G1 X78.812 Y96.314 E0.56565
G1 X77.894 Y95.958 E0.57208
G1 X77.029 Y95.577 E0.57825
G1 X76.224 Y95.174 E0.58414
G1 X75.479 Y94.752 E0.58973
G1 X74.801 Y94.314 E0.59500
G1 X74.189 Y93.865 E0.59996
G1 X73.648 Y93.407 E0.60459
G1 X73.178 Y92.946 E0.60889
G1 X72.783 Y92.489 E0.61284
G1 X72.455 Y92.033 E0.61651
G1 X72.201 Y91.596 E0.61981
G1 X72.007 Y91.162 E0.62291
G1 X71.877 Y90.749 E0.62574
G1 X71.799 Y90.341 E0.62845
G1 X71.774 Y89.943 E0.63106
G1 X71.799 Y89.544 E0.63367
G1 X71.877 Y89.136 E0.63638
G1 X72.007 Y88.723 E0.63922
G1 X72.201 Y88.289 E0.64232
G1 X72.455 Y87.852 E0.64562
G1 X72.783 Y87.396 E0.64929
G1 X73.178 Y86.939 E0.65323
G1 X73.572 Y86.553 E0.65684
G1 X73.167 Y85.949 F7800.000
G1 X73.746 Y85.459 E0.66179 F540.000
G1 X74.395 Y84.982 E0.66705
G1 X75.109 Y84.522 E0.67261
G1 X75.888 Y84.081 E0.67845
G1 X76.725 Y83.661 E0.68457
G1 X77.621 Y83.267 E0.69096
G1 X78.568 Y82.899 E0.69760
G1 X79.563 Y82.561 E0.70446
G1 X80.603 Y82.254 E0.71155
G1 X81.682 Y81.979 E0.71882
G1 X82.797 Y81.738 E0.72627
G1 X84.103 Y81.508 E0.73493
G1 X85.111 Y81.362 E0.74158
G1 X86.300 Y81.229 E0.74940
G1 X87.506 Y81.133 E0.75730
G1 X88.722 Y81.076 E0.76525
G1 X89.943 Y81.057 E0.77323
G1 X91.163 Y81.076 E0.78120
G1 X92.379 Y81.133 E0.78915
G1 X93.585 Y81.229 E0.79705
G1 X94.774 Y81.362 E0.80487
G1 X95.943 Y81.532 E0.81259
G1 X97.088 Y81.738 E0.82019
G1 X98.203 Y81.979 E0.82764
G1 X99.282 Y82.254 E0.83491
G1 X100.322 Y82.561 E0.84200
G1 X101.317 Y82.899 E0.84886
G1 X102.264 Y83.267 E0.85550
G1 X103.159 Y83.661 E0.86189
G1 X103.997 Y84.081 E0.86800
G1 X104.776 Y84.522 E0.87385
G1 X105.490 Y84.982 E0.87940
G1 X106.139 Y85.459 E0.88466
G1 X106.718 Y85.949 E0.88962
G1 X107.228 Y86.449 E0.89428
G1 X107.663 Y86.953 E0.89863
G1 X108.029 Y87.461 E0.90272
G1 X108.321 Y87.964 E0.90652
G1 X108.546 Y88.467 E0.91012
G1 X108.726 Y89.089 E0.91435
G1 X108.683 Y90.985 E0.92674
G1 X108.546 Y91.418 E0.92970
G1 X108.321 Y91.921 E0.93330
G1 X108.029 Y92.424 E0.93710
G1 X107.663 Y92.932 E0.94119
G1 X107.228 Y93.436 E0.94554
G1 X106.718 Y93.936 E0.95020
G1 X106.139 Y94.426 E0.95516
G1 X105.490 Y94.903 E0.96042
G1 X104.776 Y95.363 E0.96597
G1 X103.997 Y95.804 E0.97182
G1 X103.160 Y96.224 E0.97793
G1 X102.264 Y96.618 E0.98433
G1 X101.317 Y96.986 E0.99096
G1 X100.322 Y97.324 E0.99783
G1 X99.282 Y97.631 E1.00491
G1 X98.203 Y97.906 E1.01219
G1 X97.088 Y98.147 E1.01964
G1 X95.944 Y98.353 E1.02723
G1 X94.775 Y98.523 E1.03495
G1 X93.585 Y98.656 E1.04277
G1 X92.379 Y98.752 E1.05067
G1 X91.163 Y98.809 E1.05862
G1 X89.943 Y98.828 E1.06659
G1 X88.722 Y98.809 E1.07457
G1 X87.506 Y98.752 E1.08252
G1 X86.300 Y98.656 E1.09042
G1 X85.111 Y98.523 E1.09824
G1 X83.941 Y98.353 E1.10596
G1 X82.797 Y98.147 E1.11355
G1 X81.682 Y97.906 E1.12100
G1 X80.603 Y97.631 E1.12828
G1 X79.563 Y97.324 E1.13536
G1 X78.568 Y96.986 E1.14223
G1 X77.621 Y96.618 E1.14886
G1 X76.726 Y96.224 E1.15525
G1 X75.888 Y95.804 E1.16137
G1 X75.109 Y95.363 E1.16722
G1 X74.395 Y94.903 E1.17277
G1 X73.746 Y94.426 E1.17803
G1 X73.167 Y93.936 E1.18298
G1 X72.657 Y93.436 E1.18765
G1 X72.222 Y92.932 E1.19200
G1 X71.856 Y92.424 E1.19609
G1 X71.564 Y91.921 E1.19988
G1 X71.339 Y91.418 E1.20349
G1 X71.183 Y90.923 E1.20687
G1 X71.089 Y90.431 E1.21015
G1 X71.059 Y89.943 E1.21334
G1 X71.089 Y89.454 E1.21654
G1 X71.183 Y88.962 E1.21981
G1 X71.339 Y88.467 E1.22320
G1 X71.564 Y87.964 E1.22680
G1 X71.856 Y87.461 E1.23060
G1 X72.222 Y86.953 E1.23469
G1 X72.657 Y86.449 E1.23904
G1 X73.091 Y86.024 E1.24301
G1 X72.686 Y85.421 F7800.000
G1 X73.304 Y84.898 E1.24829 F378.000
G1 X73.990 Y84.394 E1.25385
G1 X74.740 Y83.911 E1.25968
G1 X75.552 Y83.450 E1.26578
G1 X76.422 Y83.015 E1.27213
G1 X77.348 Y82.607 E1.27874
G1 X78.323 Y82.228 E1.28558
G1 X79.347 Y81.881 E1.29264
G1 X80.414 Y81.565 E1.29991
G1 X81.518 Y81.284 E1.30735
G1 X82.658 Y81.037 E1.31497
G1 X84.000 Y80.802 E1.32387
G1 X85.019 Y80.653 E1.33060
G1 X86.233 Y80.518 E1.33857
G1 X87.461 Y80.421 E1.34662
G1 X88.699 Y80.362 E1.35472
G1 X89.943 Y80.343 E1.36284
G1 X91.186 Y80.362 E1.37096
G1 X92.424 Y80.421 E1.37906
G1 X93.653 Y80.518 E1.38711
G1 X94.866 Y80.653 E1.39508
G1 X96.058 Y80.827 E1.40296
G1 X97.227 Y81.037 E1.41071
G1 X98.367 Y81.284 E1.41833
G1 X99.471 Y81.565 E1.42578
G1 X100.538 Y81.881 E1.43304
G1 X101.562 Y82.228 E1.44010
G1 X102.537 Y82.607 E1.44694
G1 X103.463 Y83.015 E1.45355
G1 X104.333 Y83.450 E1.45990
G1 X105.145 Y83.911 E1.46600
G1 X105.716 Y84.278 E1.47043
G1 X106.581 Y84.898 E1.47739
G1 X107.199 Y85.421 E1.48267
G1 X107.748 Y85.959 E1.48770
G1 X108.224 Y86.509 E1.49245
G1 X108.628 Y87.071 E1.49697
G1 X108.958 Y87.638 E1.50125
G1 X109.214 Y88.212 E1.50536
G1 X109.396 Y88.787 E1.50930
G1 X109.441 Y89.025 E1.51088
G1 X109.391 Y91.115 E1.52454
G1 X109.214 Y91.673 E1.52836
G1 X108.958 Y92.247 E1.53247
G1 X108.628 Y92.814 E1.53675
G1 X108.224 Y93.376 E1.54127
G1 X107.748 Y93.926 E1.54602
G1 X107.199 Y94.464 E1.55104
G1 X106.581 Y94.987 E1.55633
G1 X105.895 Y95.491 E1.56189
G1 X105.145 Y95.974 E1.56772
G1 X104.333 Y96.435 E1.57382
G1 X103.463 Y96.870 E1.58017
G1 X102.537 Y97.278 E1.58678
G1 X101.562 Y97.657 E1.59362
G1 X100.538 Y98.004 E1.60068
G1 X99.471 Y98.320 E1.60794
G1 X98.367 Y98.601 E1.61539
G1 X97.227 Y98.848 E1.62301
G1 X96.058 Y99.058 E1.63076
G1 X94.866 Y99.232 E1.63864
G1 X93.652 Y99.367 E1.64661
G1 X92.424 Y99.464 E1.65466
G1 X91.186 Y99.523 E1.66276
G1 X89.942 Y99.542 E1.67088
G1 X88.699 Y99.523 E1.67900
G1 X87.461 Y99.464 E1.68710
G1 X86.233 Y99.367 E1.69515
G1 X85.019 Y99.232 E1.70312
G1 X83.827 Y99.058 E1.71099
G1 X82.658 Y98.848 E1.71875
G1 X81.518 Y98.601 E1.72637
G1 X80.414 Y98.320 E1.73382
G1 X79.347 Y98.004 E1.74108
G1 X78.323 Y97.657 E1.74814
G1 X77.348 Y97.278 E1.75498
G1 X76.422 Y96.870 E1.76159
G1 X75.552 Y96.435 E1.76794
G1 X74.740 Y95.974 E1.77404
G1 X73.990 Y95.491 E1.77987
G1 X73.304 Y94.987 E1.78543
G1 X72.686 Y94.464 E1.79072
G1 X72.137 Y93.926 E1.79574
G1 X71.661 Y93.376 E1.80049
G1 X71.214 Y92.741 E1.80556
G1 X70.927 Y92.247 E1.80929
G1 X70.671 Y91.673 E1.81340
G1 X70.489 Y91.098 E1.81734
G1 X70.379 Y90.520 E1.82118
G1 X70.343 Y89.943 E1.82496
G1 X70.379 Y89.365 E1.82874
G1 X70.489 Y88.787 E1.83258
G1 X70.671 Y88.212 E1.83652
G1 X70.927 Y87.638 E1.84063
G1 X71.257 Y87.071 E1.84491
G1 X71.661 Y86.509 E1.84943
G1 X72.137 Y85.959 E1.85418
G1 X72.610 Y85.496 E1.85851
G1 X73.364 Y85.646 F7800.000
G1 X72.312 Y90.318 F7800.000
G1 X76.976 Y94.983 E1.90240 F720.000
G1 X78.779 Y95.757 F7800.000
G1 X72.356 Y89.334 E1.96286 F720.000
G1 X72.628 Y88.577 E1.96821
G1 X80.327 Y96.275 E2.04066
G1 X81.740 Y96.660 E2.05041
G1 X73.018 Y87.938 E2.13249
G1 X73.479 Y87.370 E2.13736
G1 X83.063 Y96.953 E2.22755
G1 X84.310 Y97.172 E2.23598
G1 X73.994 Y86.856 E2.33307
G1 X74.551 Y86.384 E2.33793
G1 X85.505 Y97.338 E2.44102
G1 X86.654 Y97.458 E2.44871
G1 X75.147 Y85.951 E2.55701
G1 X75.774 Y85.550 E2.56197
G1 X87.766 Y97.541 E2.67482
G1 X88.843 Y97.589 E2.68200
G1 X76.431 Y85.177 E2.79881
G1 X77.116 Y84.833 E2.80391
G1 X89.888 Y97.605 E2.92412
G1 X90.903 Y97.591 E2.93087
G1 X77.824 Y84.513 E3.05396
G1 X78.556 Y84.215 E3.05921
G1 X91.892 Y97.551 E3.18472
G1 X92.858 Y97.488 E3.19116
G1 X79.308 Y83.938 E3.31868
G1 X80.081 Y83.682 E3.32410
G1 X93.801 Y97.402 E3.45322
G1 X94.723 Y97.296 E3.45940
G1 X80.875 Y83.448 E3.58973
G1 X81.693 Y83.237 E3.59536
G1 X95.622 Y97.165 E3.72644
G1 X96.497 Y97.012 E3.73236
G1 X82.531 Y83.045 E3.86380
G1 X83.388 Y82.873 E3.86961
G1 X97.354 Y96.840 E4.00106
G1 X98.192 Y96.648 E4.00677
G1 X84.263 Y82.720 E4.13786
G1 X85.162 Y82.589 E4.14390
G1 X99.010 Y96.437 E4.27423
G1 X99.804 Y96.203 E4.27974
G1 X86.084 Y82.483 E4.40887
G1 X87.027 Y82.397 E4.41517
G1 X100.577 Y95.947 E4.54269
G1 X101.329 Y95.670 E4.54802
G1 X87.993 Y82.334 E4.67354
G1 X88.982 Y82.294 E4.68013
G1 X102.061 Y95.372 E4.80321
G1 X102.769 Y95.052 E4.80839
G1 X89.997 Y82.280 E4.92860
G1 X91.042 Y82.296 E4.93555
G1 X103.454 Y94.708 E5.05236
G1 X104.111 Y94.335 E5.05739
G1 X92.120 Y82.344 E5.17024
G1 X93.231 Y82.427 E5.17765
G1 X104.738 Y93.934 E5.28595
G1 X105.334 Y93.501 E5.29085
G1 X94.380 Y82.547 E5.39394
G1 X95.575 Y82.713 E5.40197
G1 X105.891 Y93.029 E5.49906
G1 X106.406 Y92.515 E5.50390
G1 X96.823 Y82.932 E5.59409
G1 X98.145 Y83.225 E5.60310
G1 X106.867 Y91.947 E5.68519
G1 X107.257 Y91.308 E5.69017
G1 X99.558 Y83.610 E5.76262
G1 X101.106 Y84.128 F7800.000
G1 X107.475 Y90.498 E5.82257 F720.000
G1 X107.496 Y89.490 E5.82927
G1 X102.909 Y84.902 E5.87245
G1 X105.858 Y86.823 F7800.000
G1 X106.428 Y87.392 E5.87780 F720.000
G1 X74.027 Y93.062 F7800.000
G1 X73.457 Y92.493 E5.88316 F720.000
M106 S190
G1 F300.000 E5.78316
G92 E0
G1 Z0.700 F7800.000
G1 X72.379 Y93.288 F7800.000
G1 E0.10000 F300.000
G1 X72.132 Y93.003 E0.10103 F1800
G1 X71.760 Y92.486 E0.10278
G1 X71.462 Y91.973 E0.10441
G1 X71.232 Y91.459 E0.10596
G1 X71.072 Y90.951 E0.10742
G1 X70.976 Y90.445 E0.10883
G1 X70.944 Y89.943 E0.11021
G1 X70.976 Y89.440 E0.11159
G1 X71.072 Y88.934 E0.11301
G1 X71.232 Y88.426 E0.11447
G1 X71.462 Y87.912 E0.11601
G1 X71.760 Y87.399 E0.11764
G1 X72.132 Y86.882 E0.11939
G1 X72.574 Y86.371 E0.12124
G1 X73.090 Y85.865 E0.12323
G1 X73.676 Y85.370 E0.12533
G1 X74.330 Y84.888 E0.12756
G1 X75.050 Y84.424 E0.12991
G1 X75.834 Y83.980 E0.13238
G1 X76.677 Y83.558 E0.13497
G1 X77.577 Y83.162 E0.13767
G1 X78.529 Y82.792 E0.14047
G1 X79.528 Y82.452 E0.14337
G1 X80.573 Y82.144 E0.14635
G1 X81.656 Y81.868 E0.14942
G1 X82.775 Y81.626 E0.15256
G1 X83.923 Y81.419 E0.15576
G1 X85.096 Y81.249 E0.15902
G1 X86.290 Y81.115 E0.16231
G1 X87.499 Y81.020 E0.16564
G1 X88.718 Y80.962 E0.16899
G1 X89.943 Y80.943 E0.17235
G1 X91.167 Y80.962 E0.17571
G1 X92.386 Y81.020 E0.17906
G1 X93.595 Y81.115 E0.18239
G1 X94.789 Y81.249 E0.18568
G1 X95.962 Y81.419 E0.18894
G1 X97.110 Y81.626 E0.19214
G1 X98.229 Y81.868 E0.19528
G1 X99.312 Y82.144 E0.19835
G1 X100.357 Y82.452 E0.20133
G1 X101.356 Y82.792 E0.20423
G1 X102.308 Y83.162 E0.20703
G1 X103.208 Y83.558 E0.20973
G1 X104.051 Y83.980 E0.21232
G1 X104.835 Y84.424 E0.21479
G1 X105.555 Y84.888 E0.21714
G1 X106.209 Y85.370 E0.21937
G1 X106.795 Y85.865 E0.22147
G1 X107.311 Y86.371 E0.22346
G1 X107.753 Y86.882 E0.22531
G1 X108.125 Y87.399 E0.22706
G1 X108.304 Y87.707 E0.22804
G1 X108.329 Y87.999 E0.22884
G1 X108.336 Y88.962 E0.23148
G1 X108.305 Y90.606 E0.23600
G1 X108.244 Y91.517 E0.23850
G1 X108.195 Y91.821 E0.23935
G1 X108.161 Y92.231 E0.24048
G1 X108.103 Y92.516 E0.24127
G1 X107.753 Y93.003 E0.24292
G1 X107.311 Y93.514 E0.24477
G1 X106.931 Y93.886 E0.24623
G1 X106.496 Y94.072 E0.24753
G1 X106.481 Y94.285 E0.24812
G1 X106.209 Y94.515 E0.24910
G1 X105.555 Y94.997 E0.25132
G1 X104.835 Y95.461 E0.25368
G1 X104.051 Y95.905 E0.25615
G1 X103.208 Y96.327 E0.25873
G1 X102.319 Y96.719 E0.26140
G1 X101.356 Y97.093 E0.26423
G1 X100.357 Y97.433 E0.26713
G1 X99.312 Y97.741 E0.27012
G1 X98.229 Y98.017 E0.27319
G1 X97.110 Y98.259 E0.27633
G1 X95.962 Y98.466 E0.27953
G1 X94.789 Y98.636 E0.28278
G1 X93.595 Y98.770 E0.28608
G1 X92.386 Y98.865 E0.28940
G1 X91.167 Y98.923 E0.29275
G1 X89.942 Y98.942 E0.29611
G1 X88.718 Y98.923 E0.29948
G1 X87.499 Y98.865 E0.30282
G1 X86.289 Y98.770 E0.30615
G1 X85.096 Y98.636 E0.30945
G1 X83.923 Y98.466 E0.31270
G1 X82.775 Y98.259 E0.31590
G1 X81.656 Y98.017 E0.31904
G1 X80.573 Y97.741 E0.32211
G1 X79.528 Y97.433 E0.32510
G1 X78.529 Y97.093 E0.32800
G1 X77.577 Y96.723 E0.33080
G1 X76.677 Y96.327 E0.33350
G1 X75.834 Y95.905 E0.33608
G1 X75.050 Y95.461 E0.33855
G1 X74.330 Y94.997 E0.34090
G1 X73.676 Y94.515 E0.34313
G1 X73.090 Y94.020 E0.34524
G1 X72.574 Y93.514 E0.34722
G1 X72.418 Y93.334 E0.34788
G1 X72.076 Y93.550 F7800.000
G1 X71.818 Y93.251 E0.34896 F1800
G1 X71.425 Y92.705 E0.35081
G1 X71.105 Y92.156 E0.35255
G1 X70.858 Y91.602 E0.35422
G1 X70.683 Y91.049 E0.35581
G1 X70.578 Y90.495 E0.35735
G1 X70.544 Y89.943 E0.35887
G1 X70.578 Y89.390 E0.36039
G1 X70.683 Y88.836 E0.36194
G1 X70.858 Y88.283 E0.36353
G1 X71.105 Y87.729 E0.36519
G1 X71.425 Y87.180 E0.36694
G1 X71.818 Y86.634 E0.36878
G1 X72.283 Y86.096 E0.37073
G1 X72.821 Y85.569 E0.37280
G1 X73.428 Y85.055 E0.37498
G1 X74.103 Y84.559 E0.37728
G1 X74.843 Y84.082 E0.37970
G1 X75.646 Y83.627 E0.38223
G1 X76.507 Y83.196 E0.38487
G1 X77.424 Y82.792 E0.38762
G1 X78.392 Y82.416 E0.39047
G1 X79.407 Y82.071 E0.39341
G1 X80.467 Y81.758 E0.39645
G1 X81.564 Y81.478 E0.39955
G1 X82.697 Y81.233 E0.40273
G1 X83.859 Y81.024 E0.40597
G1 X85.045 Y80.852 E0.40926
G1 X86.252 Y80.717 E0.41259
G1 X87.473 Y80.620 E0.41596
G1 X88.705 Y80.562 E0.41934
G1 X89.943 Y80.543 E0.42274
G1 X91.180 Y80.562 E0.42613
G1 X92.412 Y80.620 E0.42952
G1 X93.633 Y80.717 E0.43288
G1 X94.840 Y80.852 E0.43621
G1 X96.026 Y81.024 E0.43950
G1 X97.188 Y81.233 E0.44274
G1 X98.321 Y81.478 E0.44592
G1 X99.418 Y81.758 E0.44903
G1 X100.478 Y82.071 E0.45206
G1 X101.493 Y82.416 E0.45500
G1 X102.461 Y82.792 E0.45785
G1 X103.378 Y83.196 E0.46060
G1 X104.239 Y83.627 E0.46324
G1 X105.042 Y84.082 E0.46577
G1 X105.782 Y84.559 E0.46819
G1 X106.457 Y85.055 E0.47049
G1 X107.064 Y85.569 E0.47267
G1 X107.602 Y86.096 E0.47474
G1 X108.067 Y86.634 E0.47669
G1 X108.460 Y87.180 E0.47853
G1 X108.697 Y87.586 E0.47982
G1 X108.729 Y87.976 E0.48090
G1 X108.736 Y88.954 E0.48358
G1 X108.705 Y90.629 E0.48818
G1 X108.642 Y91.562 E0.49074
