; generated by Slic3r 1.0.0RC3 on 2014-11-11 at 18:30:53

; layer_height = 0.3
; perimeters = 3
; top_solid_layers = 3
; bottom_solid_layers = 3
; fill_density = 0.2
; perimeter_speed = 30
; infill_speed = 40
; travel_speed = 130
; nozzle_diameter = 0.4
; filament_diameter = 1.75
; extrusion_multiplier = 0.055
; perimeters extrusion width = 0.40mm
; infill extrusion width = 0.42mm
; solid infill extrusion width = 0.42mm
; top infill extrusion width = 0.42mm
; first layer extrusion width = 0.80mm

G21 ; set units to millimeters
M107

G90 ; use absolute coordinates
M82 ; use absolute distances for extrusion
G1 Z0.400000 F600.000000
G1 X28.812000 Y83.571000 F1800.000000
G4 P2
M340 P0 S2100
G1 X29.780000 Y83.242000 F1800.000000
G1 X30.792000 Y82.943000
G1 X31.846000 Y82.674000
G1 X32.935000 Y82.438000
G1 X34.056000 Y82.237000
G1 X35.202000 Y82.070000
G1 X36.369000 Y81.940000
G1 X37.551000 Y81.846000
G1 X38.744000 Y81.790000
G1 X39.943000 Y81.771000
G1 X41.141000 Y81.790000
G1 X42.334000 Y81.846000
G1 X43.516000 Y81.940000
G1 X44.683000 Y82.070000
G1 X45.829000 Y82.237000
G1 X46.950000 Y82.438000
G1 X48.039000 Y82.674000
G1 X49.093000 Y82.943000
G1 X50.105000 Y83.242000
G1 X51.073000 Y83.571000
G1 X51.991000 Y83.927000
G1 X52.855000 Y84.308000
G1 X53.662000 Y84.711000
G1 X54.406000 Y85.133000
G1 X55.085000 Y85.571000
G1 X55.696000 Y86.020000
G1 X56.236000 Y86.477000
G1 X56.705000 Y86.938000
G1 X57.102000 Y87.396000
G1 X57.428000 Y87.848000
G1 X57.685000 Y88.290000
G1 X57.877000 Y88.720000
G1 X58.009000 Y89.137000
G1 X58.085000 Y89.543000
G1 X58.111000 Y89.942000
G1 X58.085000 Y90.342000
G1 X58.009000 Y90.748000
G1 X57.877000 Y91.165000
G1 X57.685000 Y91.595000
G1 X57.428000 Y92.037000
G1 X57.102000 Y92.489000
G1 X56.705000 Y92.947000
G1 X56.236000 Y93.408000
G1 X55.696000 Y93.865000
G1 X55.085000 Y94.314000
G1 X54.406000 Y94.752000
G1 X53.662000 Y95.174000
G1 X52.856000 Y95.577000
G1 X51.991000 Y95.958000
G1 X51.073000 Y96.314000
G1 X50.105000 Y96.643000
G1 X49.093000 Y96.942000
G1 X48.039000 Y97.211000
G1 X46.950000 Y97.447000
G1 X45.829000 Y97.648000
G1 X44.683000 Y97.815000
G1 X43.516000 Y97.945000
G1 X42.334000 Y98.039000
G1 X41.141000 Y98.095000
G1 X39.943000 Y98.114000
G1 X38.744000 Y98.095000
G1 X37.551000 Y98.039000
G1 X36.369000 Y97.945000
G1 X35.202000 Y97.815000
G1 X34.056000 Y97.648000
G1 X32.935000 Y97.447000
G1 X31.846000 Y97.211000
G1 X30.792000 Y96.942000
G1 X29.780000 Y96.643000
G1 X28.812000 Y96.314000
G1 X27.894000 Y95.958000
G1 X27.030000 Y95.577000
G1 X26.223000 Y95.174000
G1 X25.479000 Y94.752000
G1 X24.800000 Y94.314000
G1 X24.189000 Y93.865000
G1 X23.649000 Y93.408000
G1 X23.180000 Y92.947000
G1 X22.783000 Y92.489000
G1 X22.457000 Y92.037000
G1 X22.200000 Y91.595000
G1 X22.008000 Y91.165000
G1 X21.876000 Y90.748000
G1 X21.800000 Y90.342000
G1 X21.774000 Y89.942000
G1 X21.800000 Y89.543000
G1 X21.876000 Y89.137000
G1 X22.008000 Y88.720000
G1 X22.200000 Y88.290000
G1 X22.457000 Y87.848000
G1 X22.783000 Y87.396000
G1 X23.180000 Y86.938000
G1 X23.649000 Y86.477000
G1 X24.189000 Y86.020000
G1 X24.800000 Y85.571000
G1 X25.479000 Y85.133000
G1 X26.223000 Y84.711000
G1 X27.029000 Y84.308000
G1 X27.894000 Y83.927000
G1 X28.712000 Y83.610000
G4 P2
M340 P0 S1650
G1 X28.396000 Y82.966000 F1800.000000
G4 P2
M340 P0 S2100
G1 X29.563000 Y82.561000 F1800.000000
G1 X30.603000 Y82.254000
G1 X31.682000 Y81.979000
G1 X32.797000 Y81.738000
G1 X34.103000 Y81.508000
G1 X35.111000 Y81.362000
G1 X36.301000 Y81.229000
G1 X37.506000 Y81.133000
G1 X38.722000 Y81.076000
G1 X39.943000 Y81.057000
G1 X41.163000 Y81.076000
G1 X42.379000 Y81.133000
G1 X43.584000 Y81.229000
G1 X44.774000 Y81.362000
G1 X45.944000 Y81.532000
G1 X47.088000 Y81.738000
G1 X48.203000 Y81.979000
G1 X49.282000 Y82.254000
G1 X50.322000 Y82.561000
G1 X51.317000 Y82.900000
G1 X52.265000 Y83.267000
G1 X53.159000 Y83.661000
G1 X53.998000 Y84.081000
G1 X54.776000 Y84.522000
G1 X55.490000 Y84.982000
G1 X56.138000 Y85.459000
G1 X56.718000 Y85.949000
G1 X57.226000 Y86.448000
G1 X57.663000 Y86.953000
G1 X58.028000 Y87.459000
G1 X58.321000 Y87.964000
G1 X58.545000 Y88.466000
G1 X58.702000 Y88.962000
G1 X58.795000 Y89.454000
G1 X58.826000 Y89.942000
G1 X58.795000 Y90.431000
G1 X58.702000 Y90.923000
G1 X58.545000 Y91.419000
G1 X58.321000 Y91.921000
G1 X58.028000 Y92.426000
G1 X57.663000 Y92.932000
G1 X57.226000 Y93.437000
G1 X56.718000 Y93.936000
G1 X56.138000 Y94.426000
G1 X55.490000 Y94.903000
G1 X54.776000 Y95.363000
G1 X53.998000 Y95.804000
G1 X53.159000 Y96.224000
G1 X52.265000 Y96.618000
G1 X51.317000 Y96.985000
G1 X50.322000 Y97.324000
G1 X49.282000 Y97.631000
G1 X48.203000 Y97.906000
G1 X47.088000 Y98.147000
G1 X45.944000 Y98.353000
G1 X44.774000 Y98.523000
G1 X43.584000 Y98.656000
G1 X42.379000 Y98.752000
G1 X41.163000 Y98.809000
G1 X39.943000 Y98.828000
G1 X38.722000 Y98.809000
G1 X37.506000 Y98.752000
G1 X36.301000 Y98.656000
G1 X35.111000 Y98.523000
G1 X33.941000 Y98.353000
G1 X32.797000 Y98.147000
G1 X31.682000 Y97.906000
G1 X30.603000 Y97.631000
G1 X29.563000 Y97.324000
G1 X28.568000 Y96.985000
G1 X27.620000 Y96.618000
G1 X26.726000 Y96.224000
G1 X25.887000 Y95.804000
G1 X25.109000 Y95.363000
G1 X24.395000 Y94.903000
G1 X23.747000 Y94.426000
G1 X23.167000 Y93.936000
G1 X22.659000 Y93.437000
G1 X22.222000 Y92.932000
G1 X21.857000 Y92.426000
G1 X21.564000 Y91.921000
G1 X21.340000 Y91.419000
G1 X21.183000 Y90.923000
G1 X21.090000 Y90.431000
G1 X21.059000 Y89.942000
G1 X21.090000 Y89.454000
G1 X21.183000 Y88.962000
G1 X21.340000 Y88.466000
G1 X21.564000 Y87.964000
G1 X21.857000 Y87.459000
G1 X22.222000 Y86.953000
G1 X22.659000 Y86.448000
G1 X23.167000 Y85.949000
G1 X23.747000 Y85.459000
G1 X24.395000 Y84.982000
G1 X25.109000 Y84.522000
G1 X25.887000 Y84.081000
G1 X26.726000 Y83.661000
G1 X27.620000 Y83.267000
G1 X28.296000 Y83.005000
G4 P2
M340 P0 S1650
G1 X28.087000 Y82.320000 F1800.000000
G4 P2
M340 P0 S2100
G1 X29.347000 Y81.881000 F1800.000000
G1 X30.414000 Y81.565000
G1 X31.519000 Y81.284000
G1 X32.658000 Y81.037000
G1 X33.826000 Y80.827000
G1 X35.020000 Y80.653000
G1 X35.987000 Y80.545000
G1 X37.461000 Y80.421000
G1 X38.699000 Y80.362000
G1 X39.943000 Y80.343000
G1 X41.186000 Y80.362000
G1 X42.424000 Y80.421000
G1 X43.652000 Y80.518000
G1 X44.865000 Y80.653000
G1 X46.059000 Y80.827000
G1 X47.227000 Y81.037000
G1 X48.366000 Y81.284000
G1 X49.471000 Y81.565000
G1 X50.538000 Y81.881000
G1 X51.561000 Y82.228000
G1 X52.538000 Y82.607000
G1 X53.463000 Y83.015000
G1 X54.334000 Y83.450000
G1 X55.146000 Y83.911000
G1 X55.896000 Y84.394000
G1 X56.581000 Y84.898000
G1 X57.199000 Y85.421000
G1 X57.747000 Y85.959000
G1 X58.224000 Y86.510000
G1 X58.628000 Y87.070000
G1 X58.958000 Y87.638000
G1 X59.214000 Y88.211000
G1 X59.396000 Y88.787000
G1 X59.505000 Y89.364000
G1 X59.542000 Y89.942000
G1 X59.505000 Y90.521000
G1 X59.396000 Y91.098000
G1 X59.214000 Y91.674000
G1 X58.958000 Y92.247000
G1 X58.628000 Y92.815000
G1 X58.224000 Y93.375000
G1 X57.747000 Y93.926000
G1 X57.199000 Y94.464000
G1 X56.581000 Y94.987000
G1 X55.896000 Y95.491000
G1 X55.146000 Y95.974000
G1 X54.334000 Y96.435000
G1 X53.463000 Y96.870000
G1 X52.538000 Y97.278000
G1 X51.561000 Y97.657000
G1 X50.538000 Y98.004000
G1 X49.471000 Y98.320000
G1 X48.366000 Y98.601000
G1 X47.227000 Y98.848000
G1 X46.059000 Y99.058000
G1 X44.865000 Y99.232000
G1 X43.652000 Y99.367000
G1 X42.424000 Y99.464000
G1 X41.186000 Y99.523000
G1 X39.943000 Y99.542000
G1 X38.699000 Y99.523000
G1 X37.461000 Y99.464000
G1 X36.233000 Y99.367000
G1 X35.020000 Y99.232000
G1 X33.826000 Y99.058000
G1 X32.658000 Y98.848000
G1 X31.519000 Y98.601000
G1 X30.414000 Y98.320000
G1 X29.347000 Y98.004000
G1 X28.324000 Y97.657000
G1 X27.347000 Y97.278000
G1 X26.422000 Y96.870000
G1 X25.551000 Y96.435000
G1 X24.739000 Y95.974000
G1 X23.989000 Y95.491000
G1 X23.304000 Y94.987000
G1 X22.686000 Y94.464000
G1 X22.138000 Y93.926000
G1 X21.661000 Y93.375000
G1 X21.257000 Y92.815000
G1 X20.927000 Y92.247000
G1 X20.671000 Y91.674000
G1 X20.489000 Y91.098000
G1 X20.380000 Y90.521000
G1 X20.343000 Y89.942000
G1 X20.380000 Y89.364000
G1 X20.489000 Y88.787000
G1 X20.671000 Y88.211000
G1 X20.927000 Y87.638000
G1 X21.257000 Y87.070000
G1 X21.661000 Y86.510000
G1 X22.138000 Y85.959000
G1 X22.686000 Y85.421000
G1 X23.304000 Y84.898000
G1 X23.989000 Y84.394000
G1 X24.739000 Y83.911000
G1 X25.551000 Y83.450000
G1 X26.422000 Y83.015000
G1 X27.347000 Y82.607000
G1 X27.988000 Y82.359000
G4 P2
M340 P0 S1650
G1 X28.634000 Y82.780000 F1800.000000
G1 X22.312000 Y90.318000 F1800.000000
G4 P2
M340 P0 S2100
G1 X26.976000 Y94.983000 F1800.000000
G4 P2
M340 P0 S1650
G1 X28.779000 Y95.757000 F1800.000000
G4 P2
M340 P0 S2100
G1 X22.356000 Y89.333000 F1800.000000
G1 X22.628000 Y88.577000
G1 X30.327000 Y96.275000
G1 X31.740000 Y96.660000
G1 X23.018000 Y87.938000
G1 X23.480000 Y87.370000
G1 X33.063000 Y96.954000
G1 X34.310000 Y97.172000
G1 X23.994000 Y86.856000
G1 X24.551000 Y86.384000
G1 X35.505000 Y97.338000
G1 X36.655000 Y97.458000
G1 X25.147000 Y85.951000
G1 X25.774000 Y85.549000
G1 X37.766000 Y97.541000
G1 X38.843000 Y97.589000
G1 X26.431000 Y85.177000
G1 X27.116000 Y84.833000
G1 X39.888000 Y97.605000
G1 X40.903000 Y97.591000
G1 X27.824000 Y84.512000
G1 X28.556000 Y84.215000
G1 X41.892000 Y97.551000
G1 X42.858000 Y97.488000
G1 X29.308000 Y83.938000
G1 X30.081000 Y83.682000
G1 X43.801000 Y97.402000
G1 X44.723000 Y97.296000
G1 X30.875000 Y83.448000
G1 X31.694000 Y83.237000
G1 X45.622000 Y97.165000
G1 X46.498000 Y97.012000
G1 X32.531000 Y83.045000
G1 X33.387000 Y82.873000
G1 X47.354000 Y96.840000
G1 X48.191000 Y96.648000
G1 X34.263000 Y82.720000
G1 X35.162000 Y82.589000
G1 X49.010000 Y96.437000
G1 X49.804000 Y96.203000
G1 X36.084000 Y82.483000
G1 X37.027000 Y82.397000
G1 X50.577000 Y95.947000
G1 X51.329000 Y95.670000
G1 X37.993000 Y82.334000
G1 X38.982000 Y82.294000
G1 X52.061000 Y95.373000
G1 X52.769000 Y95.052000
G1 X39.997000 Y82.280000
G1 X41.042000 Y82.296000
G1 X53.454000 Y94.708000
G1 X54.111000 Y94.336000
G1 X42.119000 Y82.344000
G1 X43.230000 Y82.427000
G1 X54.738000 Y93.934000
G1 X55.334000 Y93.501000
G1 X44.380000 Y82.547000
G1 X45.575000 Y82.713000
G1 X55.891000 Y93.029000
G1 X56.405000 Y92.515000
G1 X46.822000 Y82.932000
G1 X48.145000 Y83.225000
G1 X56.867000 Y91.947000
G1 X57.257000 Y91.308000
G1 X49.558000 Y83.610000
G4 P2
M340 P0 S1650
G1 X51.106000 Y84.128000 F1800.000000
G4 P2
M340 P0 S2100
G1 X57.529000 Y90.552000 F1800.000000
G1 X57.573000 Y89.567000
G1 X52.909000 Y84.902000
G4 P2
M340 P0 S1650
G1 X55.856000 Y86.821000 F1800.000000
G4 P2
M340 P0 S2100
G1 X56.426000 Y87.390000 F1800.000000
G4 P2
M340 P0 S1650
G1 X24.029000 Y93.064000 F1800.000000
G4 P2
M340 P0 S2100
G1 X23.459000 Y92.494000 F1800.000000
M106 S186
G4 P2
M340 P0 S1650
G1 Z0.700000 F600.000000
G1 X22.681000 Y93.026000 F1800.000000
G4 P2
M340 P0 S2100
G1 X22.447000 Y92.755000 F1800.000000
G1 X22.098000 Y92.270000
G1 X21.819000 Y91.790000
G1 X21.607000 Y91.318000
G1 X21.460000 Y90.853000
G1 X21.374000 Y90.396000
G1 X21.345000 Y89.942000
G1 X21.374000 Y89.489000
G1 X21.460000 Y89.032000
G1 X21.607000 Y88.567000
G1 X21.819000 Y88.095000
G1 X22.098000 Y87.615000
G1 X22.447000 Y87.130000
G1 X22.867000 Y86.644000
G1 X23.360000 Y86.161000
G1 X23.924000 Y85.684000
G1 X24.557000 Y85.218000
G1 X25.257000 Y84.766000
G1 X26.022000 Y84.333000
G1 X26.847000 Y83.920000
G1 X27.730000 Y83.531000
G1 X28.665000 Y83.168000
G1 X29.650000 Y82.834000
G1 X30.679000 Y82.529000
G1 X31.748000 Y82.257000
G1 X32.788000 Y82.032000
G1 X34.181000 Y82.050000
G1 X34.398000 Y82.106000
G1 X38.860000 Y81.935000
G1 X40.140000 Y81.783000
G1 X42.416000 Y81.423000
G1 X43.557000 Y81.513000
G1 X44.738000 Y81.645000
G1 X45.898000 Y81.814000
G1 X47.033000 Y82.018000
G1 X48.137000 Y82.257000
G1 X49.206000 Y82.529000
G1 X50.235000 Y82.834000
G1 X51.220000 Y83.168000
G1 X52.155000 Y83.531000
G1 X53.038000 Y83.920000
G1 X53.792000 Y84.293000
G1 X54.628000 Y84.766000
G1 X55.328000 Y85.218000
G1 X55.961000 Y85.684000
G1 X56.525000 Y86.161000
G1 X57.018000 Y86.644000
G1 X57.438000 Y87.130000
G1 X57.787000 Y87.615000
G1 X58.066000 Y88.095000
G1 X58.278000 Y88.567000
G1 X58.425000 Y89.032000
G1 X58.511000 Y89.489000
G1 X58.540000 Y89.942000
G1 X58.511000 Y90.396000
G1 X58.425000 Y90.853000
G1 X58.278000 Y91.318000
G1 X58.066000 Y91.790000
G1 X57.787000 Y92.270000
G1 X57.438000 Y92.755000
G1 X57.018000 Y93.241000
G1 X56.525000 Y93.724000
G1 X55.961000 Y94.201000
G1 X55.328000 Y94.667000
G1 X54.628000 Y95.119000
G1 X53.863000 Y95.552000
G1 X53.038000 Y95.965000
G1 X52.155000 Y96.354000
G1 X51.220000 Y96.717000
G1 X50.235000 Y97.051000
G1 X49.206000 Y97.356000
G1 X48.137000 Y97.628000
G1 X47.033000 Y97.867000
G1 X45.898000 Y98.071000
G1 X44.738000 Y98.240000
G1 X43.557000 Y98.372000
G1 X42.361000 Y98.466000
G1 X41.154000 Y98.523000
G1 X39.942000 Y98.542000
G1 X38.731000 Y98.523000
G1 X37.524000 Y98.466000
G1 X36.328000 Y98.372000
G1 X35.147000 Y98.240000
G1 X33.987000 Y98.071000
G1 X32.852000 Y97.867000
G1 X31.748000 Y97.628000
G1 X30.679000 Y97.356000
G1 X29.650000 Y97.051000
G1 X28.665000 Y96.717000
G1 X27.730000 Y96.354000
G1 X26.847000 Y95.965000
G1 X26.022000 Y95.552000
G1 X25.257000 Y95.119000
G1 X24.557000 Y94.667000
G1 X23.924000 Y94.201000
G1 X23.360000 Y93.724000
G1 X22.867000 Y93.241000
G1 X22.721000 Y93.072000
G4 P2
M340 P0 S1650
G1 X22.379000 Y93.288000 F1800.000000
G4 P2
M340 P0 S2100
G1 X22.132000 Y93.003000 F1800.000000
G1 X21.761000 Y92.488000
G1 X21.462000 Y91.973000
G1 X21.233000 Y91.460000
G1 X21.072000 Y90.951000
G1 X20.976000 Y90.446000
G1 X20.944000 Y89.942000
G1 X20.976000 Y89.439000
G1 X21.072000 Y88.934000
G1 X21.233000 Y88.425000
G1 X21.462000 Y87.912000
G1 X21.761000 Y87.397000
G1 X22.132000 Y86.882000
G1 X22.575000 Y86.370000
G1 X23.090000 Y85.865000
G1 X23.676000 Y85.370000
G1 X24.330000 Y84.888000
G1 X25.050000 Y84.424000
G1 X25.834000 Y83.980000
G1 X26.677000 Y83.558000
G1 X27.577000 Y83.162000
G1 X28.529000 Y82.792000
G1 X29.529000 Y82.452000
G1 X30.573000 Y82.144000
G1 X31.656000 Y81.868000
G1 X32.748000 Y81.632000
G1 X34.236000 Y81.651000
G1 X34.442000 Y81.704000
G1 X38.829000 Y81.536000
G1 X40.084000 Y81.387000
G1 X42.396000 Y81.020000
G1 X43.831000 Y81.142000
G1 X44.789000 Y81.249000
G1 X45.962000 Y81.419000
G1 X47.111000 Y81.626000
G1 X48.229000 Y81.868000
G1 X49.312000 Y82.144000
G1 X50.356000 Y82.452000
G1 X51.356000 Y82.792000
G1 X52.308000 Y83.162000
G1 X53.208000 Y83.558000
G1 X54.051000 Y83.980000
G1 X54.626000 Y84.306000
G1 X54.626000 Y84.289000
G1 X55.555000 Y84.888000
G1 X56.209000 Y85.370000
G1 X56.795000 Y85.865000
G1 X57.310000 Y86.370000
G1 X57.753000 Y86.882000
G1 X58.123000 Y87.397000
G1 X58.423000 Y87.912000
G1 X58.652000 Y88.425000
G1 X58.813000 Y88.934000
G1 X58.909000 Y89.439000
G1 X58.941000 Y89.942000
G1 X58.909000 Y90.446000
G1 X58.813000 Y90.951000
G1 X58.652000 Y91.460000
G1 X58.423000 Y91.973000
G1 X58.124000 Y92.488000
G1 X57.753000 Y93.003000
G1 X57.310000 Y93.515000
G1 X56.795000 Y94.020000
G1 X56.209000 Y94.515000
G1 X55.555000 Y94.997000
G1 X54.835000 Y95.461000
G1 X54.051000 Y95.905000
G1 X53.208000 Y96.327000
G1 X52.308000 Y96.723000
G1 X51.356000 Y97.093000
G1 X50.356000 Y97.433000
G1 X49.312000 Y97.741000
G1 X48.229000 Y98.017000
G1 X47.111000 Y98.259000
G1 X45.962000 Y98.466000
G1 X44.789000 Y98.636000
G1 X43.595000 Y98.770000
G1 X42.386000 Y98.865000
G1 X41.167000 Y98.923000
G1 X39.942000 Y98.942000
G1 X38.718000 Y98.923000
G1 X37.499000 Y98.865000
G1 X36.054000 Y98.743000
G1 X35.096000 Y98.636000
G1 X33.923000 Y98.466000
G1 X32.774000 Y98.259000
G1 X31.656000 Y98.017000
G1 X30.573000 Y97.741000
G1 X29.529000 Y97.433000
G1 X28.529000 Y97.093000
G1 X27.577000 Y96.723000
G1 X26.677000 Y96.327000
G1 X25.834000 Y95.905000
G1 X25.050000 Y95.461000
G1 X24.330000 Y94.997000
G1 X23.676000 Y94.515000
G1 X23.090000 Y94.020000
G1 X22.575000 Y93.515000
G1 X22.418000 Y93.333000
G4 P2
M340 P0 S1650
G1 X22.076000 Y93.550000 F1800.000000
G4 P2
M340 P0 S2100
G1 X21.818000 Y93.251000 F1800.000000
G1 X21.425000 Y92.706000
G1 X21.106000 Y92.155000
G1 X20.858000 Y91.603000
