; generated by Slic3r 1.0.0RC3 on 2014-11-11 at 18:30:53

; layer_height = 0.3
; perimeters = 3
; top_solid_layers = 3
; bottom_solid_layers = 3
; fill_density = 0.2
; perimeter_speed = 30
; infill_speed = 40
; travel_speed = 130
; nozzle_diameter = 0.4
; filament_diameter = 1.75
; extrusion_multiplier = 0.055
; perimeters extrusion width = 0.40mm
; infill extrusion width = 0.42mm
; solid infill extrusion width = 0.42mm
; top infill extrusion width = 0.42mm
; first layer extrusion width = 0.80mm

G21 ; set units to millimeters
M107
M104 S200 ; set temperature

M109 S200 ; wait for temperature to be reached
G90 ; use absolute coordinates
G92 E0
M82 ; use absolute distances for extrusion
G1 F300.000 E-0.10000
G92 E0
G1 Z0.400 F7800.000
G1 X28.812 Y83.571 F7800.000
G1 E0.10000 F300.000
G1 X29.780 Y83.242 E0.10668 F540.000
G1 X30.792 Y82.943 E0.11358
G1 X31.846 Y82.674 E0.12068
G1 X32.935 Y82.438 E0.12796
G1 X34.056 Y82.237 E0.13539
G1 X35.202 Y82.070 E0.14296
G1 X36.369 Y81.940 E0.15063
G1 X37.551 Y81.846 E0.15838
G1 X38.744 Y81.790 E0.16618
G1 X39.943 Y81.771 E0.17401
G1 X41.141 Y81.790 E0.18183
G1 X42.334 Y81.846 E0.18964
G1 X43.516 Y81.940 E0.19739
G1 X44.683 Y82.070 E0.20506
G1 X45.829 Y82.237 E0.21262
G1 X46.950 Y82.438 E0.22005
G1 X48.039 Y82.674 E0.22734
G1 X49.093 Y82.943 E0.23444
G1 X50.105 Y83.242 E0.24134
G1 X51.073 Y83.571 E0.24801
G1 X51.991 Y83.927 E0.25445
G1 X52.855 Y84.308 E0.26061
G1 X53.662 Y84.711 E0.26650
G1 X54.406 Y85.133 E0.27209
G1 X55.085 Y85.571 E0.27737
G1 X55.696 Y86.020 E0.28232
G1 X56.236 Y86.477 E0.28695
G1 X56.705 Y86.938 E0.29124
G1 X57.102 Y87.396 E0.29520
G1 X57.428 Y87.848 E0.29884
G1 X57.685 Y88.290 E0.30218
G1 X57.877 Y88.720 E0.30525
G1 X58.009 Y89.137 E0.30811
G1 X58.085 Y89.543 E0.31081
G1 X58.111 Y89.942 E0.31342
G1 X58.085 Y90.342 E0.31604
G1 X58.009 Y90.748 E0.31874
G1 X57.877 Y91.165 E0.32160
G1 X57.685 Y91.595 E0.32467
G1 X57.428 Y92.037 E0.32801
G1 X57.102 Y92.489 E0.33165
G1 X56.705 Y92.947 E0.33561
G1 X56.236 Y93.408 E0.33990
G1 X55.696 Y93.865 E0.34453
G1 X55.085 Y94.314 E0.34948
G1 X54.406 Y94.752 E0.35476
G1 X53.662 Y95.174 E0.36035
G1 X52.856 Y95.577 E0.36623
G1 X51.991 Y95.958 E0.37240
G1 X51.073 Y96.314 E0.37883
G1 X50.105 Y96.643 E0.38551
G1 X49.093 Y96.942 E0.39241
G1 X48.039 Y97.211 E0.39951
G1 X46.950 Y97.447 E0.40679
G1 X45.829 Y97.648 E0.41423
G1 X44.683 Y97.815 E0.42179
G1 X43.516 Y97.945 E0.42946
G1 X42.334 Y98.039 E0.43721
G1 X41.141 Y98.095 E0.44501
G1 X39.943 Y98.114 E0.45284
G1 X38.744 Y98.095 E0.46067
G1 X37.551 Y98.039 E0.46847
G1 X36.369 Y97.945 E0.47622
G1 X35.202 Y97.815 E0.48389
G1 X34.056 Y97.648 E0.49145
G1 X32.935 Y97.447 E0.49889
G1 X31.846 Y97.211 E0.50617
G1 X30.792 Y96.942 E0.51327
G1 X29.780 Y96.643 E0.52017
G1 X28.812 Y96.314 E0.52685
G1 X27.894 Y95.958 E0.53328
G1 X27.030 Y95.577 E0.53945
G1 X26.223 Y95.174 E0.54534
G1 X25.479 Y94.752 E0.55092
G1 X24.800 Y94.314 E0.55620
G1 X24.189 Y93.865 E0.56116
G1 X23.649 Y93.408 E0.56578
G1 X23.180 Y92.947 E0.57007
G1 X22.783 Y92.489 E0.57403
G1 X22.457 Y92.037 E0.57767
G1 X22.200 Y91.595 E0.58101
G1 X22.008 Y91.165 E0.58409
G1 X21.876 Y90.748 E0.58694
G1 X21.800 Y90.342 E0.58964
G1 X21.774 Y89.942 E0.59226
G1 X21.800 Y89.543 E0.59488
G1 X21.876 Y89.137 E0.59757
G1 X22.008 Y88.720 E0.60043
G1 X22.200 Y88.290 E0.60350
G1 X22.457 Y87.848 E0.60684
G1 X22.783 Y87.396 E0.61049
G1 X23.180 Y86.938 E0.61444
G1 X23.649 Y86.477 E0.61874
G1 X24.189 Y86.020 E0.62336
G1 X24.800 Y85.571 E0.62831
G1 X25.479 Y85.133 E0.63359
G1 X26.223 Y84.711 E0.63918
G1 X27.029 Y84.308 E0.64507
G1 X27.894 Y83.927 E0.65124
G1 X28.712 Y83.610 E0.65697
G1 X28.396 Y82.966 F7800.000
G1 X29.563 Y82.561 E0.66504 F540.000
G1 X30.603 Y82.254 E0.67212
G1 X31.682 Y81.979 E0.67940
G1 X32.797 Y81.738 E0.68685
G1 X34.103 Y81.508 E0.69551
G1 X35.111 Y81.362 E0.70216
G1 X36.301 Y81.229 E0.70998
G1 X37.506 Y81.133 E0.71788
G1 X38.722 Y81.076 E0.72583
G1 X39.943 Y81.057 E0.73381
G1 X41.163 Y81.076 E0.74178
G1 X42.379 Y81.133 E0.74973
G1 X43.584 Y81.229 E0.75763
G1 X44.774 Y81.362 E0.76545
G1 X45.944 Y81.532 E0.77317
G1 X47.088 Y81.738 E0.78077
G1 X48.203 Y81.979 E0.78821
G1 X49.282 Y82.254 E0.79549
G1 X50.322 Y82.561 E0.80257
G1 X51.317 Y82.900 E0.80944
G1 X52.265 Y83.267 E0.81608
G1 X53.159 Y83.661 E0.82246
G1 X53.998 Y84.081 E0.82859
G1 X54.776 Y84.522 E0.83443
G1 X55.490 Y84.982 E0.83998
G1 X56.138 Y85.459 E0.84524
G1 X56.718 Y85.949 E0.85019
G1 X57.226 Y86.448 E0.85485
G1 X57.663 Y86.953 E0.85921
G1 X58.028 Y87.459 E0.86328
G1 X58.321 Y87.964 E0.86710
G1 X58.545 Y88.466 E0.87069
G1 X58.702 Y88.962 E0.87409
G1 X58.795 Y89.454 E0.87736
G1 X58.826 Y89.942 E0.88056
G1 X58.795 Y90.431 E0.88376
G1 X58.702 Y90.923 E0.88702
G1 X58.545 Y91.419 E0.89043
G1 X58.321 Y91.921 E0.89401
G1 X58.028 Y92.426 E0.89783
G1 X57.663 Y92.932 E0.90190
G1 X57.226 Y93.437 E0.90626
G1 X56.718 Y93.936 E0.91092
G1 X56.138 Y94.426 E0.91587
G1 X55.490 Y94.903 E0.92113
G1 X54.776 Y95.363 E0.92668
G1 X53.998 Y95.804 E0.93252
G1 X53.159 Y96.224 E0.93865
G1 X52.265 Y96.618 E0.94503
G1 X51.317 Y96.985 E0.95167
G1 X50.322 Y97.324 E0.95854
G1 X49.282 Y97.631 E0.96562
G1 X48.203 Y97.906 E0.97290
G1 X47.088 Y98.147 E0.98034
G1 X45.944 Y98.353 E0.98794
G1 X44.774 Y98.523 E0.99566
G1 X43.584 Y98.656 E1.00348
G1 X42.379 Y98.752 E1.01138
G1 X41.163 Y98.809 E1.01933
G1 X39.943 Y98.828 E1.02730
G1 X38.722 Y98.809 E1.03528
G1 X37.506 Y98.752 E1.04323
G1 X36.301 Y98.656 E1.05113
G1 X35.111 Y98.523 E1.05895
G1 X33.941 Y98.353 E1.06667
G1 X32.797 Y98.147 E1.07427
G1 X31.682 Y97.906 E1.08171
G1 X30.603 Y97.631 E1.08899
G1 X29.563 Y97.324 E1.09607
G1 X28.568 Y96.985 E1.10294
G1 X27.620 Y96.618 E1.10958
G1 X26.726 Y96.224 E1.11596
G1 X25.887 Y95.804 E1.12208
G1 X25.109 Y95.363 E1.12793
G1 X24.395 Y94.903 E1.13348
G1 X23.747 Y94.426 E1.13874
G1 X23.167 Y93.936 E1.14369
G1 X22.659 Y93.437 E1.14835
G1 X22.222 Y92.932 E1.15271
G1 X21.857 Y92.426 E1.15678
G1 X21.564 Y91.921 E1.16060
G1 X21.340 Y91.419 E1.16418
G1 X21.183 Y90.923 E1.16759
G1 X21.090 Y90.431 E1.17085
G1 X21.059 Y89.942 E1.17405
G1 X21.090 Y89.454 E1.17725
G1 X21.183 Y88.962 E1.18052
G1 X21.340 Y88.466 E1.18392
G1 X21.564 Y87.964 E1.18751
G1 X21.857 Y87.459 E1.19133
G1 X22.222 Y86.953 E1.19540
G1 X22.659 Y86.448 E1.19976
G1 X23.167 Y85.949 E1.20442
G1 X23.747 Y85.459 E1.20937
G1 X24.395 Y84.982 E1.21463
G1 X25.109 Y84.522 E1.22018
G1 X25.887 Y84.081 E1.22602
G1 X26.726 Y83.661 E1.23215
G1 X27.620 Y83.267 E1.23853
G1 X28.296 Y83.005 E1.24327
G1 X28.087 Y82.320 F7800.000
G1 X29.347 Y81.881 E1.25198 F378.000
G1 X30.414 Y81.565 E1.25924
G1 X31.519 Y81.284 E1.26669
G1 X32.658 Y81.037 E1.27431
G1 X33.826 Y80.827 E1.28206
G1 X35.020 Y80.653 E1.28994
G1 X35.987 Y80.545 E1.29630
G1 X37.461 Y80.421 E1.30596
G1 X38.699 Y80.362 E1.31406
G1 X39.943 Y80.343 E1.32218
G1 X41.186 Y80.362 E1.33030
G1 X42.424 Y80.421 E1.33840
G1 X43.652 Y80.518 E1.34645
G1 X44.865 Y80.653 E1.35442
G1 X46.059 Y80.827 E1.36230
G1 X47.227 Y81.037 E1.37005
G1 X48.366 Y81.284 E1.37767
G1 X49.471 Y81.565 E1.38512
G1 X50.538 Y81.881 E1.39238
G1 X51.561 Y82.228 E1.39944
G1 X52.538 Y82.607 E1.40628
G1 X53.463 Y83.015 E1.41289
G1 X54.334 Y83.450 E1.41924
G1 X55.146 Y83.911 E1.42534
G1 X55.896 Y84.394 E1.43117
G1 X56.581 Y84.898 E1.43673
G1 X57.199 Y85.421 E1.44202
G1 X57.747 Y85.959 E1.44703
G1 X58.224 Y86.510 E1.45179
G1 X58.628 Y87.070 E1.45630
G1 X58.958 Y87.638 E1.46059
G1 X59.214 Y88.211 E1.46469
G1 X59.396 Y88.787 E1.46864
G1 X59.505 Y89.364 E1.47248
G1 X59.542 Y89.942 E1.47626
G1 X59.505 Y90.521 E1.48004
G1 X59.396 Y91.098 E1.48388
G1 X59.214 Y91.674 E1.48783
G1 X58.958 Y92.247 E1.49193
G1 X58.628 Y92.815 E1.49622
G1 X58.224 Y93.375 E1.50073
G1 X57.747 Y93.926 E1.50549
G1 X57.199 Y94.464 E1.51051
G1 X56.581 Y94.987 E1.51579
G1 X55.896 Y95.491 E1.52135
G1 X55.146 Y95.974 E1.52718
G1 X54.334 Y96.435 E1.53328
G1 X53.463 Y96.870 E1.53963
G1 X52.538 Y97.278 E1.54624
G1 X51.561 Y97.657 E1.55308
G1 X50.538 Y98.004 E1.56014
G1 X49.471 Y98.320 E1.56741
G1 X48.366 Y98.601 E1.57486
G1 X47.227 Y98.848 E1.58247
G1 X46.059 Y99.058 E1.59023
G1 X44.865 Y99.232 E1.59810
G1 X43.652 Y99.367 E1.60608
G1 X42.424 Y99.464 E1.61412
G1 X41.186 Y99.523 E1.62222
G1 X39.943 Y99.542 E1.63034
G1 X38.699 Y99.523 E1.63846
G1 X37.461 Y99.464 E1.64656
G1 X36.233 Y99.367 E1.65461
G1 X35.020 Y99.232 E1.66258
G1 X33.826 Y99.058 E1.67046
G1 X32.658 Y98.848 E1.67822
G1 X31.519 Y98.601 E1.68583
G1 X30.414 Y98.320 E1.69328
G1 X29.347 Y98.004 E1.70054
G1 X28.324 Y97.657 E1.70760
G1 X27.347 Y97.278 E1.71445
G1 X26.422 Y96.870 E1.72105
G1 X25.551 Y96.435 E1.72741
G1 X24.739 Y95.974 E1.73351
G1 X23.989 Y95.491 E1.73933
G1 X23.304 Y94.987 E1.74489
G1 X22.686 Y94.464 E1.75018
G1 X22.138 Y93.926 E1.75520
G1 X21.661 Y93.375 E1.75995
G1 X21.257 Y92.815 E1.76447
G1 X20.927 Y92.247 E1.76876
G1 X20.671 Y91.674 E1.77286
G1 X20.489 Y91.098 E1.77680
G1 X20.380 Y90.521 E1.78064
G1 X20.343 Y89.942 E1.78442
G1 X20.380 Y89.364 E1.78821
G1 X20.489 Y88.787 E1.79205
G1 X20.671 Y88.211 E1.79599
G1 X20.927 Y87.638 E1.80009
G1 X21.257 Y87.070 E1.80438
G1 X21.661 Y86.510 E1.80890
G1 X22.138 Y85.959 E1.81365
G1 X22.686 Y85.421 E1.81867
G1 X23.304 Y84.898 E1.82396
G1 X23.989 Y84.394 E1.82951
G1 X24.739 Y83.911 E1.83534
G1 X25.551 Y83.450 E1.84144
G1 X26.422 Y83.015 E1.84780
G1 X27.347 Y82.607 E1.85440
G1 X27.988 Y82.359 E1.85889
G1 X28.634 Y82.780 F7800.000
G1 X22.312 Y90.318 F7800.000
G1 X26.976 Y94.983 E1.90279 F720.000
G1 X28.779 Y95.757 F7800.000
G1 X22.356 Y89.333 E1.96325 F720.000
G1 X22.628 Y88.577 E1.96860
G1 X30.327 Y96.275 E2.04105
G1 X31.740 Y96.660 E2.05080
G1 X23.018 Y87.938 E2.13288
G1 X23.480 Y87.370 E2.13775
G1 X33.063 Y96.954 E2.22794
G1 X34.310 Y97.172 E2.23637
G1 X23.994 Y86.856 E2.33346
G1 X24.551 Y86.384 E2.33832
G1 X35.505 Y97.338 E2.44140
G1 X36.655 Y97.458 E2.44910
G1 X25.147 Y85.951 E2.55739
G1 X25.774 Y85.549 E2.56235
G1 X37.766 Y97.541 E2.67520
G1 X38.843 Y97.589 E2.68238
G1 X26.431 Y85.177 E2.79919
G1 X27.116 Y84.833 E2.80429
G1 X39.888 Y97.605 E2.92450
G1 X40.903 Y97.591 E2.93125
G1 X27.824 Y84.512 E3.05434
G1 X28.556 Y84.215 E3.05959
G1 X41.892 Y97.551 E3.18510
G1 X42.858 Y97.488 E3.19154
G1 X29.308 Y83.938 E3.31906
G1 X30.081 Y83.682 E3.32448
G1 X43.801 Y97.402 E3.45360
G1 X44.723 Y97.296 E3.45978
G1 X30.875 Y83.448 E3.59010
G1 X31.694 Y83.237 E3.59573
G1 X45.622 Y97.165 E3.72681
G1 X46.498 Y97.012 E3.73273
G1 X32.531 Y83.045 E3.86417
G1 X33.387 Y82.873 E3.86998
G1 X47.354 Y96.840 E4.00143
G1 X48.191 Y96.648 E4.00714
G1 X34.263 Y82.720 E4.13822
G1 X35.162 Y82.589 E4.14427
G1 X49.010 Y96.437 E4.27459
G1 X49.804 Y96.203 E4.28011
G1 X36.084 Y82.483 E4.40923
G1 X37.027 Y82.397 E4.41553
G1 X50.577 Y95.947 E4.54305
G1 X51.329 Y95.670 E4.54838
G1 X37.993 Y82.334 E4.67389
G1 X38.982 Y82.294 E4.68048
G1 X52.061 Y95.373 E4.80357
G1 X52.769 Y95.052 E4.80874
G1 X39.997 Y82.280 E4.92895
G1 X41.042 Y82.296 E4.93591
G1 X53.454 Y94.708 E5.05272
G1 X54.111 Y94.336 E5.05774
G1 X42.119 Y82.344 E5.17059
G1 X43.230 Y82.427 E5.17801
G1 X54.738 Y93.934 E5.28630
G1 X55.334 Y93.501 E5.29121
G1 X44.380 Y82.547 E5.39429
G1 X45.575 Y82.713 E5.40232
G1 X55.891 Y93.029 E5.49941
G1 X56.405 Y92.515 E5.50425
G1 X46.822 Y82.932 E5.59444
G1 X48.145 Y83.225 E5.60345
G1 X56.867 Y91.947 E5.68554
G1 X57.257 Y91.308 E5.69052
G1 X49.558 Y83.610 E5.76297
G1 X51.106 Y84.128 F7800.000
G1 X57.529 Y90.552 E5.82342 F720.000
G1 X57.573 Y89.567 E5.82998
G1 X52.909 Y84.902 E5.87388
G1 X55.856 Y86.821 F7800.000
G1 X56.426 Y87.390 E5.87925 F720.000
G1 X24.029 Y93.064 F7800.000
G1 X23.459 Y92.494 E5.88461 F720.000
M106 S186
G1 F300.000 E5.78461
G92 E0
G1 Z0.700 F7800.000
G1 X22.681 Y93.026 F7800.000
G1 E0.10000 F300.000
G1 X22.447 Y92.755 E0.10098 F1800
G1 X22.098 Y92.270 E0.10262
G1 X21.819 Y91.790 E0.10415
G1 X21.607 Y91.318 E0.10557
G1 X21.460 Y90.853 E0.10690
G1 X21.374 Y90.396 E0.10818
G1 X21.345 Y89.942 E0.10943
G1 X21.374 Y89.489 E0.11067
G1 X21.460 Y89.032 E0.11195
G1 X21.607 Y88.567 E0.11329
G1 X21.819 Y88.095 E0.11471
G1 X22.098 Y87.615 E0.11623
G1 X22.447 Y87.130 E0.11787
G1 X22.867 Y86.644 E0.11963
G1 X23.360 Y86.161 E0.12153
G1 X23.924 Y85.684 E0.12355
G1 X24.557 Y85.218 E0.12571
G1 X25.257 Y84.766 E0.12800
G1 X26.022 Y84.333 E0.13041
G1 X26.847 Y83.920 E0.13294
G1 X27.730 Y83.531 E0.13559
G1 X28.665 Y83.168 E0.13834
G1 X29.650 Y82.834 E0.14120
G1 X30.679 Y82.529 E0.14414
G1 X31.748 Y82.257 E0.14717
G1 X32.788 Y82.032 E0.15009
G1 X34.181 Y82.050 E0.15391
G1 X34.398 Y82.106 E0.15452
G1 X38.860 Y81.935 E0.16678
G1 X40.140 Y81.783 E0.17032
G1 X42.416 Y81.423 E0.17664
G1 X43.557 Y81.513 E0.17978
G1 X44.738 Y81.645 E0.18304
G1 X45.898 Y81.814 E0.18625
G1 X47.033 Y82.018 E0.18942
G1 X48.137 Y82.257 E0.19252
G1 X49.206 Y82.529 E0.19555
G1 X50.235 Y82.834 E0.19849
G1 X51.220 Y83.168 E0.20134
G1 X52.155 Y83.531 E0.20410
G1 X53.038 Y83.920 E0.20674
G1 X53.792 Y84.293 E0.20905
G1 X54.628 Y84.766 E0.21169
G1 X55.328 Y85.218 E0.21397
G1 X55.961 Y85.684 E0.21613
G1 X56.525 Y86.161 E0.21816
G1 X57.018 Y86.644 E0.22005
G1 X57.438 Y87.130 E0.22181
G1 X57.787 Y87.615 E0.22345
G1 X58.066 Y88.095 E0.22498
G1 X58.278 Y88.567 E0.22640
G1 X58.425 Y89.032 E0.22773
G1 X58.511 Y89.489 E0.22901
G1 X58.540 Y89.942 E0.23026
G1 X58.511 Y90.396 E0.23150
G1 X58.425 Y90.853 E0.23278
G1 X58.278 Y91.318 E0.23412
G1 X58.066 Y91.790 E0.23554
G1 X57.787 Y92.270 E0.23706
G1 X57.438 Y92.755 E0.23870
G1 X57.018 Y93.241 E0.24046
G1 X56.525 Y93.724 E0.24236
G1 X55.961 Y94.201 E0.24439
G1 X55.328 Y94.667 E0.24654
G1 X54.628 Y95.119 E0.24883
G1 X53.863 Y95.552 E0.25124
G1 X53.038 Y95.965 E0.25377
G1 X52.155 Y96.354 E0.25642
G1 X51.220 Y96.717 E0.25917
G1 X50.235 Y97.051 E0.26203
G1 X49.206 Y97.356 E0.26497
G1 X48.137 Y97.628 E0.26800
G1 X47.033 Y97.867 E0.27110
G1 X45.898 Y98.071 E0.27426
G1 X44.738 Y98.240 E0.27748
G1 X43.557 Y98.372 E0.28074
G1 X42.361 Y98.466 E0.28403
G1 X41.154 Y98.523 E0.28735
G1 X39.942 Y98.542 E0.29067
G1 X38.731 Y98.523 E0.29400
G1 X37.524 Y98.466 E0.29731
G1 X36.328 Y98.372 E0.30060
G1 X35.147 Y98.240 E0.30386
G1 X33.987 Y98.071 E0.30708
G1 X32.852 Y97.867 E0.31024
G1 X31.748 Y97.628 E0.31334
G1 X30.679 Y97.356 E0.31637
G1 X29.650 Y97.051 E0.31932
G1 X28.665 Y96.717 E0.32217
G1 X27.730 Y96.354 E0.32492
G1 X26.847 Y95.965 E0.32757
G1 X26.022 Y95.552 E0.33010
G1 X25.257 Y95.119 E0.33251
G1 X24.557 Y94.667 E0.33480
G1 X23.924 Y94.201 E0.33696
G1 X23.360 Y93.724 E0.33898
G1 X22.867 Y93.241 E0.34088
G1 X22.721 Y93.072 E0.34149
G1 X22.379 Y93.288 F7800.000
G1 X22.132 Y93.003 E0.34253 F1800
G1 X21.761 Y92.488 E0.34427
G1 X21.462 Y91.973 E0.34590
G1 X21.233 Y91.460 E0.34744
G1 X21.072 Y90.951 E0.34891
G1 X20.976 Y90.446 E0.35032
G1 X20.944 Y89.942 E0.35170
G1 X20.976 Y89.439 E0.35309
G1 X21.072 Y88.934 E0.35450
G1 X21.233 Y88.425 E0.35596
G1 X21.462 Y87.912 E0.35750
G1 X21.761 Y87.397 E0.35914
G1 X22.132 Y86.882 E0.36088
G1 X22.575 Y86.370 E0.36274
G1 X23.090 Y85.865 E0.36472
G1 X23.676 Y85.370 E0.36682
G1 X24.330 Y84.888 E0.36905
G1 X25.050 Y84.424 E0.37140
G1 X25.834 Y83.980 E0.37387
G1 X26.677 Y83.558 E0.37646
G1 X27.577 Y83.162 E0.37916
G1 X28.529 Y82.792 E0.38196
G1 X29.529 Y82.452 E0.38486
G1 X30.573 Y82.144 E0.38785
G1 X31.656 Y81.868 E0.39091
G1 X32.748 Y81.632 E0.39398
G1 X34.236 Y81.651 E0.39806
G1 X34.442 Y81.704 E0.39865
G1 X38.829 Y81.536 E0.41069
G1 X40.084 Y81.387 E0.41416
G1 X42.396 Y81.020 E0.42058
G1 X43.831 Y81.142 E0.42454
G1 X44.789 Y81.249 E0.42718
G1 X45.962 Y81.419 E0.43043
G1 X47.111 Y81.626 E0.43363
G1 X48.229 Y81.868 E0.43677
G1 X49.312 Y82.144 E0.43984
G1 X50.356 Y82.452 E0.44283
G1 X51.356 Y82.792 E0.44573
G1 X52.308 Y83.162 E0.44853
G1 X53.208 Y83.558 E0.45123
G1 X54.051 Y83.980 E0.45381
G1 X54.626 Y84.306 E0.45563
G1 X54.626 Y84.289 E0.45567
G1 X55.555 Y84.888 E0.45870
G1 X56.209 Y85.370 E0.46093
G1 X56.795 Y85.865 E0.46304
G1 X57.310 Y86.370 E0.46502
G1 X57.753 Y86.882 E0.46687
G1 X58.123 Y87.397 E0.46862
G1 X58.423 Y87.912 E0.47025
G1 X58.652 Y88.425 E0.47179
G1 X58.813 Y88.934 E0.47326
G1 X58.909 Y89.439 E0.47467
G1 X58.941 Y89.942 E0.47605
G1 X58.909 Y90.446 E0.47744
G1 X58.813 Y90.951 E0.47885
