; generated by Slic3r 1.0.0RC3 on 2014-11-13 at 00:00:04

; layer_height = 0.3
; perimeters = 3
; top_solid_layers = 3
; bottom_solid_layers = 3
; fill_density = 0.2
; perimeter_speed = 30
; infill_speed = 40
; travel_speed = 130
; nozzle_diameter = 0.4
; filament_diameter = 1.75
; extrusion_multiplier = 0.055
; perimeters extrusion width = 0.40mm
; infill extrusion width = 0.42mm
; solid infill extrusion width = 0.42mm
; top infill extrusion width = 0.42mm
; first layer extrusion width = 0.80mm

G21 ; set units to millimeters
M107

G90 ; use absolute coordinates
M82 ; use absolute distances for extrusion
G1 Z0.400000 F600.000000
G1 X73.648000 Y86.478000 F1800.000000
G4 P2
M340 P0 S2100
G1 X74.189000 Y86.020000 F1800.000000
G1 X74.801000 Y85.571000
G1 X75.479000 Y85.133000
G1 X76.224000 Y84.711000
G1 X77.029000 Y84.308000
G1 X77.894000 Y83.927000
G1 X78.812000 Y83.571000
G1 X79.779000 Y83.242000
G1 X80.792000 Y82.943000
G1 X81.846000 Y82.674000
G1 X82.936000 Y82.438000
G1 X84.206000 Y82.215000
G1 X85.202000 Y82.070000
G1 X86.368000 Y81.940000
G1 X87.551000 Y81.846000
G1 X88.744000 Y81.790000
G1 X89.943000 Y81.771000
G1 X91.141000 Y81.790000
G1 X92.334000 Y81.846000
G1 X93.517000 Y81.940000
G1 X94.683000 Y82.070000
G1 X95.829000 Y82.237000
G1 X96.949000 Y82.438000
G1 X98.039000 Y82.674000
G1 X99.092000 Y82.943000
G1 X100.106000 Y83.242000
G1 X101.073000 Y83.571000
G1 X101.991000 Y83.927000
G1 X102.856000 Y84.308000
G1 X103.661000 Y84.711000
G1 X104.406000 Y85.133000
G1 X105.084000 Y85.571000
G1 X105.696000 Y86.020000
G1 X106.237000 Y86.478000
G1 X106.707000 Y86.939000
G1 X107.102000 Y87.396000
G1 X107.430000 Y87.852000
G1 X107.684000 Y88.289000
G1 X107.878000 Y88.723000
G1 X108.012000 Y89.146000
G1 X107.976000 Y90.852000
G1 X107.878000 Y91.162000
G1 X107.684000 Y91.596000
G1 X107.430000 Y92.033000
G1 X107.102000 Y92.489000
G1 X106.707000 Y92.946000
G1 X106.237000 Y93.407000
G1 X105.696000 Y93.865000
G1 X105.084000 Y94.314000
G1 X104.406000 Y94.752000
G1 X103.661000 Y95.174000
G1 X102.856000 Y95.577000
G1 X101.991000 Y95.958000
G1 X101.073000 Y96.314000
G1 X100.106000 Y96.643000
G1 X99.093000 Y96.942000
G1 X98.039000 Y97.211000
G1 X96.949000 Y97.447000
G1 X95.829000 Y97.648000
G1 X94.683000 Y97.815000
G1 X93.517000 Y97.945000
G1 X92.334000 Y98.039000
G1 X91.141000 Y98.095000
G1 X89.943000 Y98.114000
G1 X88.744000 Y98.095000
G1 X87.551000 Y98.039000
G1 X86.368000 Y97.945000
G1 X85.202000 Y97.815000
G1 X84.056000 Y97.648000
G1 X82.936000 Y97.447000
G1 X81.846000 Y97.211000
G1 X80.792000 Y96.942000
G1 X79.779000 Y96.643000
G1 X78.812000 Y96.314000
G1 X77.894000 Y95.958000
G1 X77.029000 Y95.577000
G1 X76.224000 Y95.174000
G1 X75.479000 Y94.752000
G1 X74.801000 Y94.314000
G1 X74.189000 Y93.865000
G1 X73.648000 Y93.407000
G1 X73.178000 Y92.946000
G1 X72.783000 Y92.489000
G1 X72.455000 Y92.033000
G1 X72.201000 Y91.596000
G1 X72.007000 Y91.162000
G1 X71.877000 Y90.749000
G1 X71.799000 Y90.341000
G1 X71.774000 Y89.943000
G1 X71.799000 Y89.544000
G1 X71.877000 Y89.136000
G1 X72.007000 Y88.723000
G1 X72.201000 Y88.289000
G1 X72.455000 Y87.852000
G1 X72.783000 Y87.396000
G1 X73.178000 Y86.939000
G1 X73.572000 Y86.553000
G4 P2
M340 P0 S1650
G1 X73.167000 Y85.949000 F1800.000000
G4 P2
M340 P0 S2100
G1 X73.746000 Y85.459000 F1800.000000
G1 X74.395000 Y84.982000
G1 X75.109000 Y84.522000
G1 X75.888000 Y84.081000
G1 X76.725000 Y83.661000
G1 X77.621000 Y83.267000
G1 X78.568000 Y82.899000
G1 X79.563000 Y82.561000
G1 X80.603000 Y82.254000
G1 X81.682000 Y81.979000
G1 X82.797000 Y81.738000
G1 X84.103000 Y81.508000
G1 X85.111000 Y81.362000
G1 X86.300000 Y81.229000
G1 X87.506000 Y81.133000
G1 X88.722000 Y81.076000
G1 X89.943000 Y81.057000
G1 X91.163000 Y81.076000
G1 X92.379000 Y81.133000
G1 X93.585000 Y81.229000
G1 X94.774000 Y81.362000
G1 X95.943000 Y81.532000
G1 X97.088000 Y81.738000
G1 X98.203000 Y81.979000
G1 X99.282000 Y82.254000
G1 X100.322000 Y82.561000
G1 X101.317000 Y82.899000
G1 X102.264000 Y83.267000
G1 X103.159000 Y83.661000
G1 X103.997000 Y84.081000
G1 X104.776000 Y84.522000
G1 X105.490000 Y84.982000
G1 X106.139000 Y85.459000
G1 X106.718000 Y85.949000
G1 X107.228000 Y86.449000
G1 X107.663000 Y86.953000
G1 X108.029000 Y87.461000
G1 X108.321000 Y87.964000
G1 X108.546000 Y88.467000
G1 X108.726000 Y89.089000
G1 X108.683000 Y90.985000
G1 X108.546000 Y91.418000
G1 X108.321000 Y91.921000
G1 X108.029000 Y92.424000
G1 X107.663000 Y92.932000
G1 X107.228000 Y93.436000
G1 X106.718000 Y93.936000
G1 X106.139000 Y94.426000
G1 X105.490000 Y94.903000
G1 X104.776000 Y95.363000
G1 X103.997000 Y95.804000
G1 X103.160000 Y96.224000
G1 X102.264000 Y96.618000
G1 X101.317000 Y96.986000
G1 X100.322000 Y97.324000
G1 X99.282000 Y97.631000
G1 X98.203000 Y97.906000
G1 X97.088000 Y98.147000
G1 X95.944000 Y98.353000
G1 X94.775000 Y98.523000
G1 X93.585000 Y98.656000
G1 X92.379000 Y98.752000
G1 X91.163000 Y98.809000
G1 X89.943000 Y98.828000
G1 X88.722000 Y98.809000
G1 X87.506000 Y98.752000
G1 X86.300000 Y98.656000
G1 X85.111000 Y98.523000
G1 X83.941000 Y98.353000
G1 X82.797000 Y98.147000
G1 X81.682000 Y97.906000
G1 X80.603000 Y97.631000
G1 X79.563000 Y97.324000
G1 X78.568000 Y96.986000
G1 X77.621000 Y96.618000
G1 X76.726000 Y96.224000
G1 X75.888000 Y95.804000
G1 X75.109000 Y95.363000
G1 X74.395000 Y94.903000
G1 X73.746000 Y94.426000
G1 X73.167000 Y93.936000
G1 X72.657000 Y93.436000
G1 X72.222000 Y92.932000
G1 X71.856000 Y92.424000
G1 X71.564000 Y91.921000
G1 X71.339000 Y91.418000
G1 X71.183000 Y90.923000
G1 X71.089000 Y90.431000
G1 X71.059000 Y89.943000
G1 X71.089000 Y89.454000
G1 X71.183000 Y88.962000
G1 X71.339000 Y88.467000
G1 X71.564000 Y87.964000
G1 X71.856000 Y87.461000
G1 X72.222000 Y86.953000
G1 X72.657000 Y86.449000
G1 X73.091000 Y86.024000
G4 P2
M340 P0 S1650
G1 X72.686000 Y85.421000 F1800.000000
G4 P2
M340 P0 S2100
G1 X73.304000 Y84.898000 F1800.000000
G1 X73.990000 Y84.394000
G1 X74.740000 Y83.911000
G1 X75.552000 Y83.450000
G1 X76.422000 Y83.015000
G1 X77.348000 Y82.607000
G1 X78.323000 Y82.228000
G1 X79.347000 Y81.881000
G1 X80.414000 Y81.565000
G1 X81.518000 Y81.284000
G1 X82.658000 Y81.037000
G1 X84.000000 Y80.802000
G1 X85.019000 Y80.653000
G1 X86.233000 Y80.518000
G1 X87.461000 Y80.421000
G1 X88.699000 Y80.362000
G1 X89.943000 Y80.343000
G1 X91.186000 Y80.362000
G1 X92.424000 Y80.421000
G1 X93.653000 Y80.518000
G1 X94.866000 Y80.653000
G1 X96.058000 Y80.827000
G1 X97.227000 Y81.037000
G1 X98.367000 Y81.284000
G1 X99.471000 Y81.565000
G1 X100.538000 Y81.881000
G1 X101.562000 Y82.228000
G1 X102.537000 Y82.607000
G1 X103.463000 Y83.015000
G1 X104.333000 Y83.450000
G1 X105.145000 Y83.911000
G1 X105.716000 Y84.278000
G1 X106.581000 Y84.898000
G1 X107.199000 Y85.421000
G1 X107.748000 Y85.959000
G1 X108.224000 Y86.509000
G1 X108.628000 Y87.071000
G1 X108.958000 Y87.638000
G1 X109.214000 Y88.212000
G1 X109.396000 Y88.787000
G1 X109.441000 Y89.025000
G1 X109.391000 Y91.115000
G1 X109.214000 Y91.673000
G1 X108.958000 Y92.247000
G1 X108.628000 Y92.814000
G1 X108.224000 Y93.376000
G1 X107.748000 Y93.926000
G1 X107.199000 Y94.464000
G1 X106.581000 Y94.987000
G1 X105.895000 Y95.491000
G1 X105.145000 Y95.974000
G1 X104.333000 Y96.435000
G1 X103.463000 Y96.870000
G1 X102.537000 Y97.278000
G1 X101.562000 Y97.657000
G1 X100.538000 Y98.004000
G1 X99.471000 Y98.320000
G1 X98.367000 Y98.601000
G1 X97.227000 Y98.848000
G1 X96.058000 Y99.058000
G1 X94.866000 Y99.232000
G1 X93.652000 Y99.367000
G1 X92.424000 Y99.464000
G1 X91.186000 Y99.523000
G1 X89.942000 Y99.542000
G1 X88.699000 Y99.523000
G1 X87.461000 Y99.464000
G1 X86.233000 Y99.367000
G1 X85.019000 Y99.232000
G1 X83.827000 Y99.058000
G1 X82.658000 Y98.848000
G1 X81.518000 Y98.601000
G1 X80.414000 Y98.320000
G1 X79.347000 Y98.004000
G1 X78.323000 Y97.657000
G1 X77.348000 Y97.278000
G1 X76.422000 Y96.870000
G1 X75.552000 Y96.435000
G1 X74.740000 Y95.974000
G1 X73.990000 Y95.491000
G1 X73.304000 Y94.987000
G1 X72.686000 Y94.464000
G1 X72.137000 Y93.926000
G1 X71.661000 Y93.376000
G1 X71.214000 Y92.741000
G1 X70.927000 Y92.247000
G1 X70.671000 Y91.673000
G1 X70.489000 Y91.098000
G1 X70.379000 Y90.520000
G1 X70.343000 Y89.943000
G1 X70.379000 Y89.365000
G1 X70.489000 Y88.787000
G1 X70.671000 Y88.212000
G1 X70.927000 Y87.638000
G1 X71.257000 Y87.071000
G1 X71.661000 Y86.509000
G1 X72.137000 Y85.959000
G1 X72.610000 Y85.496000
G4 P2
M340 P0 S1650
G1 X73.364000 Y85.646000 F1800.000000
G1 X72.312000 Y90.318000 F1800.000000
G4 P2
M340 P0 S2100
G1 X76.976000 Y94.983000 F1800.000000
G4 P2
M340 P0 S1650
G1 X78.779000 Y95.757000 F1800.000000
G4 P2
M340 P0 S2100
G1 X72.356000 Y89.334000 F1800.000000
G1 X72.628000 Y88.577000
G1 X80.327000 Y96.275000
G1 X81.740000 Y96.660000
G1 X73.018000 Y87.938000
G1 X73.479000 Y87.370000
G1 X83.063000 Y96.953000
G1 X84.310000 Y97.172000
G1 X73.994000 Y86.856000
G1 X74.551000 Y86.384000
G1 X85.505000 Y97.338000
G1 X86.654000 Y97.458000
G1 X75.147000 Y85.951000
G1 X75.774000 Y85.550000
G1 X87.766000 Y97.541000
G1 X88.843000 Y97.589000
G1 X76.431000 Y85.177000
G1 X77.116000 Y84.833000
G1 X89.888000 Y97.605000
G1 X90.903000 Y97.591000
G1 X77.824000 Y84.513000
G1 X78.556000 Y84.215000
G1 X91.892000 Y97.551000
G1 X92.858000 Y97.488000
G1 X79.308000 Y83.938000
G1 X80.081000 Y83.682000
G1 X93.801000 Y97.402000
G1 X94.723000 Y97.296000
G1 X80.875000 Y83.448000
G1 X81.693000 Y83.237000
G1 X95.622000 Y97.165000
G1 X96.497000 Y97.012000
G1 X82.531000 Y83.045000
G1 X83.388000 Y82.873000
G1 X97.354000 Y96.840000
G1 X98.192000 Y96.648000
G1 X84.263000 Y82.720000
G1 X85.162000 Y82.589000
G1 X99.010000 Y96.437000
G1 X99.804000 Y96.203000
G1 X86.084000 Y82.483000
G1 X87.027000 Y82.397000
G1 X100.577000 Y95.947000
G1 X101.329000 Y95.670000
G1 X87.993000 Y82.334000
G1 X88.982000 Y82.294000
G1 X102.061000 Y95.372000
G1 X102.769000 Y95.052000
G1 X89.997000 Y82.280000
G1 X91.042000 Y82.296000
G1 X103.454000 Y94.708000
G1 X104.111000 Y94.335000
G1 X92.120000 Y82.344000
G1 X93.231000 Y82.427000
G1 X104.738000 Y93.934000
G1 X105.334000 Y93.501000
G1 X94.380000 Y82.547000
G1 X95.575000 Y82.713000
G1 X105.891000 Y93.029000
G1 X106.406000 Y92.515000
G1 X96.823000 Y82.932000
G1 X98.145000 Y83.225000
G1 X106.867000 Y91.947000
G1 X107.257000 Y91.308000
G1 X99.558000 Y83.610000
G4 P2
M340 P0 S1650
G1 X101.106000 Y84.128000 F1800.000000
G4 P2
M340 P0 S2100
G1 X107.475000 Y90.498000 F1800.000000
G1 X107.496000 Y89.490000
G1 X102.909000 Y84.902000
G4 P2
M340 P0 S1650
G1 X105.858000 Y86.823000 F1800.000000
G4 P2
M340 P0 S2100
G1 X106.428000 Y87.392000 F1800.000000
G4 P2
M340 P0 S1650
G1 X74.027000 Y93.062000 F1800.000000
G4 P2
M340 P0 S2100
G1 X73.457000 Y92.493000 F1800.000000
M106 S190
G4 P2
M340 P0 S1650
G1 Z0.700000 F600.000000
G1 X72.379000 Y93.288000 F1800.000000
G4 P2
M340 P0 S2100
G1 X72.132000 Y93.003000 F1800.000000
G1 X71.760000 Y92.486000
G1 X71.462000 Y91.973000
G1 X71.232000 Y91.459000
G1 X71.072000 Y90.951000
G1 X70.976000 Y90.445000
G1 X70.944000 Y89.943000
G1 X70.976000 Y89.440000
G1 X71.072000 Y88.934000
G1 X71.232000 Y88.426000
G1 X71.462000 Y87.912000
G1 X71.760000 Y87.399000
G1 X72.132000 Y86.882000
G1 X72.574000 Y86.371000
G1 X73.090000 Y85.865000
G1 X73.676000 Y85.370000
G1 X74.330000 Y84.888000
G1 X75.050000 Y84.424000
G1 X75.834000 Y83.980000
G1 X76.677000 Y83.558000
G1 X77.577000 Y83.162000
G1 X78.529000 Y82.792000
G1 X79.528000 Y82.452000
G1 X80.573000 Y82.144000
G1 X81.656000 Y81.868000
G1 X82.775000 Y81.626000
G1 X83.923000 Y81.419000
G1 X85.096000 Y81.249000
G1 X86.290000 Y81.115000
G1 X87.499000 Y81.020000
G1 X88.718000 Y80.962000
G1 X89.943000 Y80.943000
G1 X91.167000 Y80.962000
G1 X92.386000 Y81.020000
G1 X93.595000 Y81.115000
G1 X94.789000 Y81.249000
G1 X95.962000 Y81.419000
G1 X97.110000 Y81.626000
G1 X98.229000 Y81.868000
G1 X99.312000 Y82.144000
G1 X100.357000 Y82.452000
G1 X101.356000 Y82.792000
G1 X102.308000 Y83.162000
G1 X103.208000 Y83.558000
G1 X104.051000 Y83.980000
G1 X104.835000 Y84.424000
G1 X105.555000 Y84.888000
G1 X106.209000 Y85.370000
G1 X106.795000 Y85.865000
G1 X107.311000 Y86.371000
G1 X107.753000 Y86.882000
G1 X108.125000 Y87.399000
G1 X108.304000 Y87.707000
G1 X108.329000 Y87.999000
G1 X108.336000 Y88.962000
G1 X108.305000 Y90.606000
G1 X108.244000 Y91.517000
G1 X108.195000 Y91.821000
G1 X108.161000 Y92.231000
G1 X108.103000 Y92.516000
G1 X107.753000 Y93.003000
G1 X107.311000 Y93.514000
G1 X106.931000 Y93.886000
G1 X106.496000 Y94.072000
G1 X106.481000 Y94.285000
G1 X106.209000 Y94.515000
G1 X105.555000 Y94.997000
G1 X104.835000 Y95.461000
G1 X104.051000 Y95.905000
G1 X103.208000 Y96.327000
G1 X102.319000 Y96.719000
G1 X101.356000 Y97.093000
G1 X100.357000 Y97.433000
G1 X99.312000 Y97.741000
G1 X98.229000 Y98.017000
G1 X97.110000 Y98.259000
G1 X95.962000 Y98.466000
G1 X94.789000 Y98.636000
G1 X93.595000 Y98.770000
G1 X92.386000 Y98.865000
G1 X91.167000 Y98.923000
G1 X89.942000 Y98.942000
G1 X88.718000 Y98.923000
G1 X87.499000 Y98.865000
G1 X86.289000 Y98.770000
G1 X85.096000 Y98.636000
G1 X83.923000 Y98.466000
G1 X82.775000 Y98.259000
G1 X81.656000 Y98.017000
G1 X80.573000 Y97.741000
G1 X79.528000 Y97.433000
G1 X78.529000 Y97.093000
G1 X77.577000 Y96.723000
G1 X76.677000 Y96.327000
G1 X75.834000 Y95.905000
G1 X75.050000 Y95.461000
G1 X74.330000 Y94.997000
G1 X73.676000 Y94.515000
G1 X73.090000 Y94.020000
G1 X72.574000 Y93.514000
G1 X72.418000 Y93.334000
G4 P2
M340 P0 S1650
G1 X72.076000 Y93.550000 F1800.000000
G4 P2
M340 P0 S2100
G1 X71.818000 Y93.251000 F1800.000000
G1 X71.425000 Y92.705000
G1 X71.105000 Y92.156000
G1 X70.858000 Y91.602000
G1 X70.683000 Y91.049000
G1 X70.578000 Y90.495000
G1 X70.544000 Y89.943000
G1 X70.578000 Y89.390000
G1 X70.683000 Y88.836000
G1 X70.858000 Y88.283000
G1 X71.105000 Y87.729000
G1 X71.425000 Y87.180000
G1 X71.818000 Y86.634000
G1 X72.283000 Y86.096000
G1 X72.821000 Y85.569000
G1 X73.428000 Y85.055000
G1 X74.103000 Y84.559000
G1 X74.843000 Y84.082000
G1 X75.646000 Y83.627000
G1 X76.507000 Y83.196000
G1 X77.424000 Y82.792000
G1 X78.392000 Y82.416000
G1 X79.407000 Y82.071000
G1 X80.467000 Y81.758000
G1 X81.564000 Y81.478000
G1 X82.697000 Y81.233000
G1 X83.859000 Y81.024000
G1 X85.045000 Y80.852000
G1 X86.252000 Y80.717000
G1 X87.473000 Y80.620000
G1 X88.705000 Y80.562000
G1 X89.943000 Y80.543000
G1 X91.180000 Y80.562000
G1 X92.412000 Y80.620000
G1 X93.633000 Y80.717000
G1 X94.840000 Y80.852000
G1 X96.026000 Y81.024000
G1 X97.188000 Y81.233000
G1 X98.321000 Y81.478000
G1 X99.418000 Y81.758000
G1 X100.478000 Y82.071000
G1 X101.493000 Y82.416000
G1 X102.461000 Y82.792000
G1 X103.378000 Y83.196000
G1 X104.239000 Y83.627000
G1 X105.042000 Y84.082000
G1 X105.782000 Y84.559000
G1 X106.457000 Y85.055000
G1 X107.064000 Y85.569000
G1 X107.602000 Y86.096000
G1 X108.067000 Y86.634000
G1 X108.460000 Y87.180000
G1 X108.697000 Y87.586000
G1 X108.729000 Y87.976000
G1 X108.736000 Y88.954000
G1 X108.705000 Y90.629000
G1 X108.642000 Y91.562000
G1 X108.592000 Y91.870000
G1 X108.557000 Y92.288000
G1 X108.479000 Y92.679000
G1 X108.067000 Y93.251000
G1 X107.602000 Y93.789000
G1 X107.157000 Y94.225000
G1 X106.878000 Y94.343000
G1 X106.869000 Y94.481000
G1 X106.457000 Y94.830000
G1 X105.782000 Y95.326000
G1 X105.042000 Y95.803000
G1 X104.239000 Y96.258000
G1 X103.674000 Y96.541000
G1 X102.472000 Y97.088000
G1 X101.493000 Y97.469000
G1 X100.478000 Y97.814000
G1 X99.418000 Y98.127000
G1 X98.321000 Y98.407000
G1 X97.188000 Y98.652000
G1 X96.026000 Y98.861000
G1 X94.840000 Y99.033000
G1 X93.634000 Y99.168000
G1 X92.412000 Y99.265000
G1 X91.180000 Y99.323000
G1 X89.942000 Y99.342000
G1 X88.705000 Y99.323000
G1 X87.473000 Y99.265000
G1 X86.252000 Y99.168000
G1 X85.045000 Y99.033000
G1 X83.859000 Y98.861000
G1 X82.697000 Y98.652000
G1 X81.564000 Y98.407000
G1 X80.467000 Y98.127000
G1 X79.407000 Y97.814000
G1 X78.392000 Y97.469000
G1 X77.424000 Y97.093000
G1 X76.507000 Y96.689000
G1 X75.646000 Y96.258000
G1 X74.843000 Y95.803000
G1 X74.103000 Y95.326000
G1 X73.428000 Y94.830000
G1 X72.821000 Y94.316000
G1 X72.283000 Y93.789000
G1 X72.115000 Y93.595000
G4 P2
M340 P0 S1650
G1 X71.774000 Y93.812000 F1800.000000
G4 P2
M340 P0 S2100
